!!!!SEGMENT: pl-stab--10a--001-001_rodowski-aleksander--litanie-lauretane-de-b-v-m-kyrie.krn
!!!cenid: 18xx:3431
!!!COM: Rodowski, Aleksander
!!!COM-rismid: pe30009627
!!!CDT: <1790->1810
!!!CNT: Polish
!!!OPR: Litanie Lauretane de B.V.M
!!!OTL: Kyrie
!!!OMV: 001
!!!PDT:
!!!AGN:
!!!OMD: Adagio
!!!SMS-siglum: PL-STAb
!!!SMS-shelfmark: 10a
!!!SMS-shelfwork: 001-001 M
!!!SMS-variant:
!!!SMS-altvar:
!!!NIFC-rismid: 301050674
!!!URL-scan: https://repozytorium.nifc.pl/islandora/object/pl-stab%3A2273/datastream/PDF/view
!!!ONB-nifc: UWAGA: części Litanii: 1. Kyrie, 2. Pater de caelis, 3. Sancta Maria, 4. Mater Christi, 5. Mater amabilis, 6. Virgo prudentissima, 7. Rosa mistica, 8. Salus infirmorum, 9. Regina angelorum, 10. Agnus Dei
**kern	**fba	**dynam	**kern	**dynam	**kern	**dynam	**kern	**text	**kern	**text	**kern	**text	**kern	**kern	**dynam
*part8	*part8	*part8	*part7	*part7	*part6	*part6	*part5	*part5	*part4	*part4	*part3	*part3	*part2	*part1	*part1
*staff8	*	*	*staff7	*	*staff6	*	*staff5	*staff5	*staff4	*staff4	*staff3	*staff3	*staff2	*staff1	*
*I"Organo	*	*	*I"Violino Secundo	*	*I"Violino Primo	*	*I"Baſso	*	*I"Tenore	*	*I"Canto	*	*I"Cornu Secundo in G.	*I"Cornu Primo in G.	*
*I'org	*	*	*I'vl 2	*	*I'vl 1	*	*I'B	*	*I'T	*	*I'S	*	*I'cor 2 in G	*I'cor 1 in G	*
*clefF4	*	*	*clefG2	*	*clefG2	*	*clefF4	*	*clefC4	*	*clefC1	*	*clefG2	*clefG2	*
*	*	*	*	*	*	*	*	*	*	*	*	*	*ITrd3c5	*ITrd3c5	*
*k[f#]	*	*	*k[f#]	*	*k[f#]	*	*k[f#]	*	*k[f#]	*	*k[f#]	*	*k[f#]	*k[f#]	*
*G:	*	*	*G:	*	*G:	*	*G:	*	*G:	*	*G:	*	*G:	*G:	*
*M3/4	*	*	*M3/4	*	*M3/4	*	*M3/4	*	*M3/4	*	*M3/4	*	*M3/4	*M3/4	*
*	*	*	*	*	*	*below	*	*	*	*	*	*	*	*	*
=1	=1	=1	=1	=1	=1	=1	=1	=1	=1	=1	=1	=1	=1	=1	=1
!	!	!	!	!	!	!	!	!	!	!	!	!	!	!LO:TX:a:t=Kyrie Tacet	!
!LO:TX:t=P:problem:mixed beam	!	!	!	!	!	!	!	!	!	!	!	!	!LO:TX:a:t=Kyrie Tacet	!	!
8GG/L	3 1	.	8b/L 8d/ 8G/	f	8gg/ 8b/ 8G/	.	4G\	Ky-	4G/	Ky-	4b\	Ky-	2.ryy	2.ryy	.
8G\	.	.	8g/	p	8b\L	p	.	.	.	.	.	.	.	.	.
8G\	4 2	.	8a/	.	(8cc\	.	4G\	-ri-	8A/L	-ri-	8cc\L	-ri-	.	.	.
8G\	3 1	.	8g/	.	8b\)	.	.	.	8G/J	-e	8b\J	-e	.	.	.
8G\	4 2	.	8a/	.	(8cc\	.	8G\	-e	8A/L	e-	8cc\	.	.	.	.
8G\J	6 3	.	8b/J	.	8dd\J)	.	8G\	e-	8B/J	.	8dd\	e-	.	.	.
=2	=2	=2	=2	=2	=2	=2	=2	=2	=2	=2	=2	=2	=2	=2	=2
4F#X\	7 5	.	16cc\LL	.	16ee\LL	.	4F#X\	-lei-	4c\	-lei-	4ee\	-lei-	2.ryy	2.ryy	.
.	.	.	16ee\	.	16gg\	.	.	.	.	.	.	.	.	.	.
.	.	.	16dd\	.	16ff#\	.	.	.	.	.	.	.	.	.	.
.	.	.	16cc\JJ	.	16ee\JJ	.	.	.	.	.	.	.	.	.	.
4G\	6 3	.	4b\	.	4dd\	.	4G\	-son	4B\	-son	4dd\	-son	.	.	.
4r	.	.	4r	.	4r	.	4r	.	4r	.	4r	.	.	.	.
=3	=3	=3	=3	=3	=3	=3	=3	=3	=3	=3	=3	=3	=3	=3	=3
8F#X\	6 3	.	8.a/L	.	8.dd\L	.	4F#\	Chri-	4A\	Chri-	8.dd\L	Chri-	2.ryy	2.ryy	.
8r	.	.	.	.	.	.	.	.	.	.	.	.	.	.	.
.	.	.	16a/Jk	.	16cc\Jk	.	.	.	.	.	16cc\Jk	.	.	.	.
8F#\	_ _	.	8.a/L	.	8.cc\L	.	8.F#\L	-ste	8.A\L	-ste	8.cc\L	-ste	.	.	.
8r	.	.	.	.	.	.	.	.	.	.	.	.	.	.	.
.	.	.	16g/Jk	.	16b\Jk	.	16G\Jk	.	16G\Jk	.	16b\Jk	.	.	.	.
8G\	3	.	8.b/L	.	8.dd\L	.	16G\LL	e-	8.B\L	e	8.dd\L	e-	.	.	.
.	.	.	.	.	.	.	16A\	.	.	.	.	.	.	.	.
16r	.	.	.	.	.	.	16B\	.	.	.	.	.	.	.	.
16C#X/	7 5	.	16g/Jk	.	16b\Jk	.	16c#X\JJ	.	16G\Jk	.	16b\Jk	.	.	.	.
=4	=4	=4	=4	=4	=4	=4	=4	=4	=4	=4	=4	=4	=4	=4	=4
4D\	6 4	.	16a/LL	.	16cc\LL	.	4d\	lei-	16A/LL	-lei-	16cc\LL	-lei-	2.ryy	2.ryy	.
.	.	.	16g/	.	16b\	.	.	.	16G/	.	16b\	.	.	.	.
.	.	.	16f#/	.	16a\	.	.	.	16F#/	.	16a\	.	.	.	.
.	.	.	16g/JJ	.	16b\JJ	.	.	.	16G/JJ	.	16b\JJ	.	.	.	.
4DD/	5 3	.	4f#/	.	4a\	.	4D/	-son	4F#/	-son	4a\	-son	.	.	.
4r	.	.	4r	.	4r	.	4r	.	4r	.	4r	.	.	.	.
=5	=5	=5	=5	=5	=5	=5	=5	=5	=5	=5	=5	=5	=5	=5	=5
*2\right	*	*	*	*	*	*	*	*	*	*	*	*	*	*	*
*tremolo	*	*	*	*	*	*	*	*	*	*	*	*	*	*	*
8c\L	6_ 3_	.	16c/LL	.	4.a\	.	4.cn\	Ky-	4.E/	Ky-	4.a\	Ky-	2.ryy	2.ryy	.
.	.	.	16e/	.	.	.	.	.	.	.	.	.	.	.	.
8c\	.	.	16c/	.	.	.	.	.	.	.	.	.	.	.	.
.	.	.	16e/JJ	.	.	.	.	.	.	.	.	.	.	.	.
*	*	*	*rep	*	*	*	*	*	*	*	*	*	*	*	*
8c\	.	.	16c/LL	.	.	.	.	.	.	.	.	.	.	.	.
.	.	.	16e/	.	.	.	.	.	.	.	.	.	.	.	.
8c\J	.	.	16c/	.	8a\	.	8c\	-ri-	8E/	-ri-	8a\	-ri-	.	.	.
.	.	.	16e/JJ	.	.	.	.	.	.	.	.	.	.	.	.
*Xtremolo	*	*	*Xrep	*	*	*	*	*	*	*	*	*	*	*	*
!	!	!	!	!	!	!	!LO:LB:g=original	!	!	!	!LO:LB:g=original	!	!	!	!
8B\L	6\ 3	.	16d/LL	.	16g#X\LL	.	8B\	-e	8D/	-e	8g#X\	-e	.	.	.
.	.	.	16e/	.	16dd\	.	.	.	.	.	.	.	.	.	.
8B\J	_ _	.	16d/	.	16b\	.	8B\	e-	8D/	e-	8g#\	e-	.	.	.
.	.	.	16e/JJ	.	16g#\JJ	.	.	.	.	.	.	.	.	.	.
!	!	!	!	!	!	!	!	!	!LO:LB:g=original	!	!	!	!	!	!
=6	=6	=6	=6	=6	=6	=6	=6	=6	=6	=6	=6	=6	=6	=6	=6
4c\	6 3	.	16c/LL	.	8.b/L	.	4c\	-lei-	4E/	-lei-	8.b\L	-lei-	2.ryy	2.ryy	.
.	.	.	16e/	.	.	.	.	.	.	.	.	.	.	.	.
.	.	.	16c/	.	.	.	.	.	.	.	.	.	.	.	.
.	.	.	16e/JJ	.	16a/Jk	.	.	.	.	.	16a\Jk	.	.	.	.
4c\	.	.	4e/ 4c/	.	4a/	.	4c\	-son	4E/	-son	8a\	-son	.	.	.
.	.	.	.	.	.	.	.	.	.	.	8ee\	e-	.	.	.
4r	.	.	4r	.	4r	.	4r	.	4r	.	16dd\LL	lei-	.	.	.
.	.	.	.	.	.	.	.	.	.	.	16cc\	.	.	.	.
.	.	.	.	.	.	.	.	.	.	.	16b\	.	.	.	.
.	.	.	.	.	.	.	.	.	.	.	16a\JJ	.	.	.	.
!	!	!	!	!	!LO:LB:g=original	!	!	!	!	!	!	!	!	!	!
=7	=7	=7	=7	=7	=7	=7	=7	=7	=7	=7	=7	=7	=7	=7	=7
*tremolo	*	*	*	*	*	*	*2\right	*	*2\right	*	*	*	*	*	*
8d\L	6 4	.	16B/LL	.	4gn/	.	2d\	e-	2B\	e-	4g\	.	2.ryy	2.ryy	.
.	.	.	16d/	.	.	.	.	.	.	.	.	.	.	.	.
8d\	.	.	16B/	.	.	.	.	.	.	.	.	.	.	.	.
.	.	.	16d/JJ	.	.	.	.	.	.	.	.	.	.	.	.
*	*	*	*rep	*	*	*	*	*	*	*	*	*	*	*	*
8d\	.	.	16B/LL	.	16g/LL	.	.	.	.	.	16g\LL	.	.	.	.
.	.	.	16d/	.	16a/	.	.	.	.	.	16a\	.	.	.	.
8d\J	.	.	16B/	.	16g/	.	.	.	.	.	16g\	.	.	.	.
.	.	.	16d/JJ	.	16a/JJ	.	.	.	.	.	16a\JJ	.	.	.	.
*Xtremolo	*	*	*Xrep	*	*	*	*	*	*	*	*	*	*	*	*
!	!	!	!LO:LB:g=original	!	!	!	!	!	!	!	!	!	!	!	!
8D/L	7 5 3	.	16c/LL	.	4b/	.	4D\	-lei-	4c\	-lei-	4aT\	.	.	.	.
.	.	.	16d/	.	.	.	.	.	.	.	.	.	.	.	.
8D/J	.	.	16c/	.	.	.	.	.	.	.	.	.	.	.	.
.	.	.	16d/JJ	.	.	.	.	.	.	.	.	.	.	.	.
=8	=8	=8	=8	=8	=8	=8	=8	=8	=8	=8	=8	=8	=8	=8	=8
4E\	5 3	.	4e/	.	4g/	.	4E\	-son	4B\	-son	4g\	-son	2.ryy	2.ryy	.
!	!	!	!LO:TX:t=P:problem:mixed beam	!	!	!	!	!	!	!	!	!	!	!	!
4r	.	.	16e/LL	.	16g\LL	.	4r	.	4r	.	4r	.	.	.	.
.	.	.	16gg\	.	16gg\	.	.	.	.	.	.	.	.	.	.
.	.	.	16ff#\	.	16ff#\	.	.	.	.	.	.	.	.	.	.
.	.	.	16ee\JJ	.	16ee\JJ	.	.	.	.	.	.	.	.	.	.
4r	.	.	16dd\LL	.	16dd\LL	.	4r	.	4r	.	4r	.	.	.	.
.	.	.	16b\	.	16b\	.	.	.	.	.	.	.	.	.	.
.	.	.	16a\	.	16a\	.	.	.	.	.	.	.	.	.	.
.	.	.	16g#X\JJ	.	16g#X\JJ	.	.	.	.	.	.	.	.	.	.
=9	=9	=9	=9	=9	=9	=9	=9	=9	=9	=9	=9	=9	=9	=9	=9
*tremolo	*	*	*	*	*	*	*	*	*	*	*	*	*	*	*
8c\L	6 3	.	16c/LL	.	4.a/	.	4.c\	Ky-	4.E/	Ky-	4.a\	Ky-	2.ryy	2.ryy	.
.	.	.	16e/	.	.	.	.	.	.	.	.	.	.	.	.
8c\	.	.	16c/	.	.	.	.	.	.	.	.	.	.	.	.
.	.	.	16e/JJ	.	.	.	.	.	.	.	.	.	.	.	.
*	*	*	*rep	*	*	*	*	*	*	*	*	*	*	*	*
8c\	.	.	16c/LL	.	.	.	.	.	.	.	.	.	.	.	.
.	.	.	16e/	.	.	.	.	.	.	.	.	.	.	.	.
8c\J	.	.	16c/	.	8a/	.	8c\	-ri-	8E/	-ri-	8a\	-ri-	.	.	.
.	.	.	16e/JJ	.	.	.	.	.	.	.	.	.	.	.	.
*Xtremolo	*	*	*Xrep	*	*	*	*	*	*	*	*	*	*	*	*
8B\L	6\ 3	.	16d/LL	.	16g#X\LL	.	8B\	-e	8D/	-e	8g#X\	-e	.	.	.
.	.	.	16e/	.	16ffn\JJ	.	.	.	.	.	.	.	.	.	.
8B\J	.	.	16d/	.	32ee\LLL	.	8B\	e-	8D/	e-	8g#\	e-	.	.	.
.	.	.	.	.	32dd\	.	.	.	.	.	.	.	.	.	.
.	.	.	16e/JJ	.	32cc\	.	.	.	.	.	.	.	.	.	.
.	.	.	.	.	32b\JJJ	.	.	.	.	.	.	.	.	.	.
=10	=10	=10	=10	=10	=10	=10	=10	=10	=10	=10	=10	=10	=10	=10	=10
4c\	6 3	.	16c/LL	.	8.b/L	.	4c\	-lei-	4E/	-lei-	8.b\L	-lei-	2.ryy	2.ryy	.
.	.	.	16e/	.	.	.	.	.	.	.	.	.	.	.	.
.	.	.	16c/	.	.	.	.	.	.	.	.	.	.	.	.
.	.	.	16e/JJ	.	16a/Jk	.	.	.	.	.	16a\Jk	.	.	.	.
4c\	.	.	4c/	.	4a/	.	4c\	-son	4E/	-son	8a\	-son	.	.	.
.	.	.	.	.	.	.	.	.	.	.	8ee\	e-	.	.	.
4r	.	.	4r	.	4r	.	4r	.	4r	.	16dd\LL	.	.	.	.
.	.	.	.	.	.	.	.	.	.	.	16cc\	.	.	.	.
.	.	.	.	.	.	.	.	.	.	.	16b\	.	.	.	.
.	.	.	.	.	.	.	.	.	.	.	16a\JJ	.	.	.	.
!	!	!	!	!	!	!	!	!	!	!	!LO:LB:g=original	!	!	!	!
=11	=11	=11	=11	=11	=11	=11	=11	=11	=11	=11	=11	=11	=11	=11	=11
*tremolo	*	*	*	*	*tremolo	*	*	*	*	*	*	*	*	*	*
8D\L	6 4	.	16B/LL	.	16g/LL	.	2.r	.	2.r	.	4dd\	.	2.ryy	2.ryy	.
.	.	.	16d/	.	16g/	.	.	.	.	.	.	.	.	.	.
8D\	.	.	16B/	.	16g/	.	.	.	.	.	.	.	.	.	.
.	.	.	16d/JJ	.	16g/	.	.	.	.	.	.	.	.	.	.
*	*	*	*rep	*	*	*	*	*	*	*	*	*	*	*	*
8D\	.	.	16B/LL	.	16g/	.	.	.	.	.	16cc#X\LL	.	.	.	.
.	.	.	16d/	.	16g/	.	.	.	.	.	16dd\	.	.	.	.
8D\	.	.	16B/	.	16g/	.	.	.	.	.	16ee\	.	.	.	.
.	.	.	16d/JJ	.	16g/	.	.	.	.	.	16dd\JJ	.	.	.	.
*	*	*	*Xrep	*	*	*	*	*	*	*	*	*	*	*	*
*	*	*	*rep	*	*	*	*	*	*	*	*	*	*	*	*
8D\	.	.	16B/LL	.	16g/	.	.	.	.	.	16ccn\LL	.	.	.	.
.	.	.	16d/	.	16g/	.	.	.	.	.	16b\	.	.	.	.
8D\J	.	.	16B/	.	16g/	.	.	.	.	.	16a\	.	.	.	.
.	.	.	16d/JJ	.	16g/JJ	.	.	.	.	.	16g\JJ	.	.	.	.
*	*	*	*Xrep	*	*	*	*	*	*	*	*	*	*	*	*
=12	=12	=12	=12	=12	=12	=12	=12	=12	=12	=12	=12	=12	=12	=12	=12
*	*	*	*rep	*	*	*	*	*	*	*	*	*	*	*	*
8D\L	7 5 3	.	16B/LL	.	16g/LL	.	4D\	e-	4B\	e-	16g\LL	.	2.ryy	2.ryy	.
.	.	.	16d/	.	16g/	.	.	.	.	.	16f#\	.	.	.	.
8D\	.	.	16B/	.	16g/	.	.	.	.	.	16g\	.	.	.	.
.	.	.	16d/JJ	.	16g/JJ	.	.	.	.	.	16g#X\JJ	.	.	.	.
*	*	*	*Xrep	*	*	*	*	*	*	*	*2\right	*	*	*	*
8D\	.	.	16c/LL	.	16f#/LL	.	4.D\	-lei-	2c\	-lei-	2aT\	.	.	.	.
.	.	.	16d/	.	16f#/	.	.	.	.	.	.	.	.	.	.
8D\	.	.	16c/	.	16f#/	.	.	.	.	.	.	.	.	.	.
.	.	.	16d/JJ	.	16f#/	.	.	.	.	.	.	.	.	.	.
*	*	*	*rep	*	*	*	*	*	*	*	*	*	*	*	*
8D\	.	.	16c/LL	.	16f#/	.	.	.	.	.	.	.	.	.	.
.	.	.	16d/	.	16f#/	.	.	.	.	.	.	.	.	.	.
8D\J	.	.	16c/	.	16f#/	.	16E\LL	.	.	.	.	.	.	.	.
.	.	.	16d/JJ	.	16f#/JJ	.	16F#\JJ	.	.	.	.	.	.	.	.
*Xtremolo	*	*	*Xrep	*	*Xtremolo	*	*	*	*	*	*	*	*	*	*
!	!	!	!	!	!	!	!LO:LB:g=original	!	!	!	!	!	!	!	!
=13	=13	=13	=13	=13	=13	=13	=13	=13	=13	=13	=13	=13	=13	=13	=13
8GG/	.	.	8B/	.	8g/	.	4G\	-son	4B\	-son	4g\	-son	2.ryy	2.ryy	.
16r	.	.	16r	.	16r	.	.	.	.	.	.	.	.	.	.
16G\	.	.	16g/	.	16gg\	.	.	.	.	.	.	.	.	.	.
16F#\LL	.	.	16f#/LL	.	16ff#\LL	.	4r	.	4r	.	4r	.	.	.	.
16G\	.	.	16g/	.	16gg\	.	.	.	.	.	.	.	.	.	.
16E\	.	.	16e/	.	16ee\	.	.	.	.	.	.	.	.	.	.
16G\JJ	.	.	16g/JJ	.	16gg\JJ	.	.	.	.	.	.	.	.	.	.
16D\LL	.	.	16d/LL	.	16dd\LL	.	16D\LL	e-	8B\	e-	8dd\	e-	.	.	.
16G\	.	.	16g/	.	16gg\	.	16G\JJ	.	.	.	.	.	.	.	.
16C#X\	.	.	16c#X/	.	16cc#X\	.	16E\LL	-lei-	8G/	-lei-	16cc#X\LL	-lei-	.	.	.
16A\JJ	.	.	16g/JJ	.	16gg\JJ	.	16A\JJ	.	.	.	16ee\JJ	.	.	.	.
=14	=14	=14	=14	=14	=14	=14	=14	=14	=14	=14	=14	=14	=14	=14	=14
2D;\	.	.	2a/ 2d/	.	2ff#/ 2a/ 2d/	.	2D;\	-son	2F#;/	-son	2dd;\	-son	2.ryy	2.ryy	.
4r	.	.	4r	.	4r	.	4ryy	.	4r	.	4ryy	.	.	.	.
!LO:LB:g=original	!	!	!LO:LB:g=original	!	!LO:LB:g=original	!	!	!	!LO:LB:g=original	!	!LO:LB:g=original	!	!	!	!
=15|!	=15|!	=15|!	=15|!	=15|!	=15|!	=15|!	=15|!	=15|!	=15|!	=15|!	=15|!	=15|!	=15|!	=15|!	=15|!
*k[f#]	*	*	*k[f#]	*	*k[f#]	*	*k[f#]	*	*k[f#]	*	*k[f#]	*	*k[f#]	*k[f#]	*
*M2/2	*	*	*M2/2	*	*M2/2	*	*M2/2	*	*M2/2	*	*M2/2	*	*M2/2	*M2/2	*
*met(c|)	*	*	*met(c|)	*	*met(c|)	*	*met(c)	*	*met(c|)	*	*met(c|)	*	*met(c|)	*met(c|)	*
!LO:TX:t=P:problem:brak znaku przykluczowego	!	!	!	!	!	!	!	!	!	!	!	!	!	!	!
!LO:TX:t=P:problem:mixed beam	!	!	!	!	!	!	!	!	!	!	!	!	!	!	!
!LO:TX:a:B:t=allo	!	!	!	!	!	!	!	!	!	!	!	!	!	!	!
!LO:TX:a:t=Christe	!	!	!LO:TX:a:B:t=allegro	!	!LO:TX:a:B:t=allegro	!	!LO:TX:a:B:t=allegro	!	!	!	!	!	!	!	!
!	!	!	!	!	!	!	!	!	!	!	!	!	!	!LO:TX:a:B:t=Allegro	!
!	!	!	!	!	!	!	!	!	!	!	!	!	!LO:TX:a:B:t=Allegro	!LO:TX:a:t=Christe audinoſ.	!
!	!	!LO:DY:t=for	!	!LO:DY:rj	!LO:TX:rj:t=Christe	!	!	!	!LO:TX:a:B:t=allegro	!	!LO:TX:a:B:t=allegro	!	!LO:TX:a:t=Christe audinoſ.	!LO:TX:a:B:t=Allegro	!
8GG/L	3 1	f	4b/ 4d/ 4G/	f	4gg/ 4b/ 4d/ 4G/	.	4G\	Chri-	4G\	Chri-	4b\	Chri-	4g\	4b\	.
8G\	.	.	.	.	.	.	.	.	.	.	.	.	.	.	.
8G\	4 2	.	4r	.	4r	.	4G\	-ste	4A\	-ste	4cc\	-ste	4r	4r	.
8G\J	.	.	.	.	.	.	.	.	.	.	.	.	.	.	.
*tremolo	*	*	*	*	*	*	*	*	*	*	*	*	*	*	*
8G\L	5 3	.	2r	.	2r	.	4G\	au-	4B\	au-	4dd\	au-	2r	2r	.
8G\	.	.	.	.	.	.	.	.	.	.	.	.	.	.	.
8G\	6 4	.	.	.	.	.	4G\	-di	4c\	-di	4ee\	-di	.	.	.
8G\J	.	.	.	.	.	.	.	.	.	.	.	.	.	.	.
*Xtremolo	*	*	*	*	*	*	*	*	*	*	*	*	*	*	*
=16	=16	=16	=16	=16	=16	=16	=16	=16	=16	=16	=16	=16	=16	=16	=16
*	*	*	*	*	*	*	*	*	*	*	*	*	*2\right	*2\right	*
4G\	5 3	.	4b\	.	4gg\ 4b\ 4d\	.	4G\	nos	4B\	nos	4dd\	nos	2g\	2b\	.
.	.	.	8qqcc/	.	8qqaa/	.	.	.	.	.	.	.	.	.	.
4r	.	.	16b\LL	.	16gg\LL	.	4r	.	4r	.	4r	.	.	.	.
.	.	.	16a\	.	16ff#\	.	.	.	.	.	.	.	.	.	.
.	.	.	16b\	.	16gg\	.	.	.	.	.	.	.	.	.	.
.	.	.	16dd\JJ	.	16bb\JJ	.	.	.	.	.	.	.	.	.	.
4r	.	.	16cc\LL	.	16aa\LL	.	2r	.	2r	.	2r	.	4a\	4cc\	.
.	.	.	16b\	.	16gg\	.	.	.	.	.	.	.	.	.	.
.	.	.	16a\	.	16ff#\	.	.	.	.	.	.	.	.	.	.
.	.	.	16g\JJ	.	16ee\JJ	.	.	.	.	.	.	.	.	.	.
4D\	.	.	16f#/LL	.	16dd\LL	.	.	.	.	.	.	.	4d\	4a\	.
.	.	.	16e/	.	16cc\	.	.	.	.	.	.	.	.	.	.
.	.	.	16d/	.	16b\	.	.	.	.	.	.	.	.	.	.
.	.	.	16c/JJ	.	16a\JJ	.	.	.	.	.	.	.	.	.	.
=17	=17	=17	=17	=17	=17	=17	=17	=17	=17	=17	=17	=17	=17	=17	=17
!LO:TX:t=P:problem:mixed beam	!	!	!	!	!	!	!	!	!	!	!	!	!	!	!
8GG/L	3 1	.	4B/	.	4g/	.	4G\	Chri-	4G/	Chri-	4b\	X-	4g\	4b\	.
8G\	.	.	.	.	.	.	.	.	.	.	.	.	.	.	.
8G\	4 2	.	4r	.	4r	.	8G\	-ste	8A/	-ste	8cc\	-ste	4r	4r	.
8G\J	.	.	.	.	.	.	8G\	e-	8A/	e-	8cc\	e-	.	.	.
*tremolo	*	*	*	*	*	*	*	*	*	*	*	*	*	*	*
8G\L	5 3	.	2r	.	2r	.	4G\	-xau-	4B\	-xau-	4dd\	-xau-	2r	2r	.
8G\	.	.	.	.	.	.	.	.	.	.	.	.	.	.	.
8G\	6 4	.	.	.	.	.	4G\	-di	4c\	-di	4ee\	-di	.	.	.
8G\J	.	.	.	.	.	.	.	.	.	.	.	.	.	.	.
*Xtremolo	*	*	*	*	*	*	*	*	*	*	*	*	*	*	*
=18	=18	=18	=18	=18	=18	=18	=18	=18	=18	=18	=18	=18	=18	=18	=18
4G\	.	.	4b\	.	4gg\ 4b\ 4d\	.	4G\	nos	4B\	nos	4dd\	nos	2g\	2b\	.
.	.	.	8qqcc/	.	8qqaa/	.	.	.	.	.	.	.	.	.	.
4r	.	.	16b\LL	.	16gg\LL	.	4r	.	4r	.	4r	.	.	.	.
.	.	.	16a\	.	16ff#\	.	.	.	.	.	.	.	.	.	.
.	.	.	16b\	.	16gg\	.	.	.	.	.	.	.	.	.	.
.	.	.	16dd\JJ	.	16bb\JJ	.	.	.	.	.	.	.	.	.	.
4r	.	.	16cc\LL	.	16aa\LL	.	2r	.	2r	.	2r	.	4a\	4cc\	.
.	.	.	16b\	.	16gg\	.	.	.	.	.	.	.	.	.	.
.	.	.	16a\	.	16ff#\	.	.	.	.	.	.	.	.	.	.
.	.	.	16g\JJ	.	16ee\JJ	.	.	.	.	.	.	.	.	.	.
4D\	.	.	16f#/LL	.	16dd\LL	.	.	.	.	.	.	.	4d\	4a\	.
.	.	.	16e/	.	16cc\	.	.	.	.	.	.	.	.	.	.
.	.	.	16d/	.	16b\	.	.	.	.	.	.	.	.	.	.
.	.	.	16c/JJ	.	16a\JJ	.	.	.	.	.	.	.	.	.	.
!	!	!	!	!	!	!	!LO:LB:g=original	!	!	!	!	!	!LO:LB:g=original	!LO:LB:g=original	!
=19	=19	=19	=19	=19	=19	=19	=19	=19	=19	=19	=19	=19	=19	=19	=19
!LO:TX:t=P:problem:mixed beam	!	!	!	!	!	!	!	!	!	!	!	!	!	!	!
8GG/L	.	.	16B/LL	.	4g/	.	4G\	Ky-	4d\	Ky-	4b\	Ky-	4g\	4b\	.
.	.	.	16d/	.	.	.	.	.	.	.	.	.	.	.	.
8G\	.	.	16B/	.	.	.	.	.	.	.	.	.	.	.	.
.	.	.	16d/JJ	.	.	.	.	.	.	.	.	.	.	.	.
.	.	.	.	.	8qqaa/	.	.	.	.	.	.	.	.	.	.
*	*	*	*rep	*	*	*	*	*	*	*	*	*	*	*	*
8G\	.	.	16B/LL	.	16gg\LL	.	4G\	-ri-	4d\	-ri-	4b\	-ri-	8g\L	8b\L	.
.	.	.	16d/	.	16ff#\	.	.	.	.	.	.	.	.	.	.
8G\J	.	.	16B/	.	16gg\	.	.	.	.	.	.	.	8g\J	8b\J	.
.	.	.	16d/JJ	.	16aa\JJ	.	.	.	.	.	.	.	.	.	.
*	*	*	*Xrep	*	*	*	*	*	*	*	*	*	*	*	*
*tremolo	*	*	*rep	*	*	*	*	*	*	*	*	*	*	*	*
8G\L	.	.	16B/LL	.	8gg\L	.	4G\	-e	4d\	-e	4b\	-e	4g\	4b\	.
.	.	.	16d/	.	.	.	.	.	.	.	.	.	.	.	.
8G\	.	.	16B/	.	8dd\	.	.	.	.	.	.	.	.	.	.
.	.	.	16d/JJ	.	.	.	.	.	.	.	.	.	.	.	.
*	*	*	*Xrep	*	*	*	*	*	*	*	*	*	*	*	*
*	*	*	*rep	*	*	*	*	*	*	*	*	*	*	*	*
8G\	.	.	16B/LL	.	8ee\	.	4G\	e-	4d\	e-	4b\	e-	4g\	4b\	.
.	.	.	16d/	.	.	.	.	.	.	.	.	.	.	.	.
8G\J	.	.	16B/	.	8b\J	.	.	.	.	.	.	.	.	.	.
.	.	.	16d/JJ	.	.	.	.	.	.	.	.	.	.	.	.
*Xtremolo	*	*	*Xrep	*	*	*	*	*	*	*	*	*	*	*	*
!	!	!	!	!	!LO:LB:g=original	!	!	!	!	!	!	!	!	!	!
=20	=20	=20	=20	=20	=20	=20	=20	=20	=20	=20	=20	=20	=20	=20	=20
*	*	*	*tremolo	*	*	*	*	*	*	*	*	*	*	*	*
8G#X\L	5	.	16c/LL	.	8dd\L	.	8G#X\L	-lei-	4d\	-lei-	8dd\L	-lei-	8b\L	8dd\L	.
.	.	.	16d/	.	.	.	.	.	.	.	.	.	.	.	.
8A\	3	.	16c/	.	8cc\J	.	8A\J	.	.	.	8cc\J	.	8a\J	8cc\J	.
.	.	.	16d/	.	.	.	.	.	.	.	.	.	.	.	.
8A\	.	.	16c/	.	4.cc\	.	4A\	-son	4d\	-son	4cc\	-son	4a\	4cc\	.
.	.	.	16d/	.	.	.	.	.	.	.	.	.	.	.	.
8A\J	.	.	16c/	.	.	.	.	.	.	.	.	.	.	.	.
.	.	.	16d/JJ	.	.	.	.	.	.	.	.	.	.	.	.
*tremolo	*	*	*rep	*	*	*	*	*	*	*	*	*	*	*	*
8A\L	.	.	16c/LL	.	.	.	2r	.	2r	.	2r	.	2r	2r	.
.	.	.	16d/	.	.	.	.	.	.	.	.	.	.	.	.
8A\	.	.	16c/	.	8b\L	.	.	.	.	.	.	.	.	.	.
.	.	.	16d/	.	.	.	.	.	.	.	.	.	.	.	.
8A\	.	.	16c/	.	8a\	.	.	.	.	.	.	.	.	.	.
.	.	.	16d/	.	.	.	.	.	.	.	.	.	.	.	.
8A\J	.	.	16c/	.	8g\J	.	.	.	.	.	.	.	.	.	.
.	.	.	16d/JJ	.	.	.	.	.	.	.	.	.	.	.	.
*Xtremolo	*	*	*Xrep	*	*	*	*	*	*	*	*	*	*	*	*
!	!	!	!	!	!	!	!	!	!LO:LB:g=original	!	!	!	!	!	!
=21	=21	=21	=21	=21	=21	=21	=21	=21	=21	=21	=21	=21	=21	=21	=21
!LO:TX:t=P:problem:mixed beam	!	!	!	!	!	!	!	!	!	!	!	!	!	!	!
8DD/L	.	.	16c/LL	.	16f#/LL	.	2D\	Chri-	4d\	Chri-	(4f#\	X-	4d/	4a\	.
.	.	.	16d/	.	16a/	.	.	.	.	.	.	.	.	.	.
8D\	.	.	16c/	.	16b/	.	.	.	.	.	.	.	.	.	.
.	.	.	16d/	.	16cc/JJ	.	.	.	.	.	.	.	.	.	.
8D\	.	.	16c/	.	16dd\LL	.	.	.	4F#/	-ste	4a\)	.	8d/L	8a\L	.
.	.	.	16d/	.	16ee\	.	.	.	.	.	.	.	.	.	.
8D\J	.	.	16c/	.	16ff#\	.	.	.	.	.	.	.	8d/J	8a\J	.
.	.	.	16d/JJ	.	16gg\JJ	.	.	.	.	.	.	.	.	.	.
!	!	!	!	!	!	!	!	!	!	!	!LO:LB:g=original	!	!	!	!
*	*	*	*rep	*	*	*	*	*	*	*	*	*	*	*	*
!	!	!	!	!	!LO:TX:t=P:problem:mixed beam	!	!	!	!	!	!	!	!	!	!
8D\L	.	.	16c/LL	.	8aa\L	.	4D\	-ste	4F#/	e	4dd\	-ste	4d/	4a\	.
.	.	.	16d/	.	.	.	.	.	.	.	.	.	.	.	.
8D\	.	.	16c/	.	8a/J	.	.	.	.	.	.	.	.	.	.
.	.	.	16d/	.	.	.	.	.	.	.	.	.	.	.	.
8E\	.	.	16c/	.	8dd\L	.	8E\L	e-	4A/	e-	4cc\	e-	4a\	4cc\	.
.	.	.	16d/	.	.	.	.	.	.	.	.	.	.	.	.
8F#\J	.	.	16c/	.	8cc\J	.	8F#\J	.	.	.	.	.	.	.	.
.	.	.	16d/JJ	.	.	.	.	.	.	.	.	.	.	.	.
*	*	*	*Xrep	*	*	*	*	*	*	*	*	*	*	*	*
!LO:LB:g=original	!	!	!LO:LB:g=original	!	!	!	!	!	!	!	!	!	!	!	!
=22	=22	=22	=22	=22	=22	=22	=22	=22	=22	=22	=22	=22	=22	=22	=22
8F#\L	5	.	16B/LL	.	16dd\LL	.	8F#\L	-lei-	16B/LL	-lei-	16dd\LL	-lei-	8a\L	8cc\L	.
.	.	.	16d/	.	16cc\	.	.	.	16A/	.	16cc\	.	.	.	.
8G\	.	.	16B/	.	16b\	.	8G\J	.	16G/	.	16b\	.	8g\J	8b\J	.
.	.	.	16d/	.	16cc\JJ	.	.	.	16A/JJ	.	16cc\JJ	.	.	.	.
8G\	.	.	16B/	.	4b\	.	4G\	-son	4G/	-son	4b\	son	4g\	4b\	.
.	.	.	16d/	.	.	.	.	.	.	.	.	.	.	.	.
8G\J	.	.	16B/	.	.	.	.	.	.	.	.	.	.	.	.
.	.	.	16d/JJ	.	.	.	.	.	.	.	.	.	.	.	.
*	*	*	*rep	*	*	*	*	*	*	*	*	*	*	*	*
8G\L	.	.	16B/LL	.	16r	.	2r	.	2r	.	2r	.	2r	2r	.
.	.	.	16d/	.	16g/LL	.	.	.	.	.	.	.	.	.	.
8G\	.	.	16B/	.	16a/	.	.	.	.	.	.	.	.	.	.
.	.	.	16d/	.	16b/JJ	.	.	.	.	.	.	.	.	.	.
8A\	6 3	.	16B/	.	16cc\LL	.	.	.	.	.	.	.	.	.	.
.	.	.	16d/	.	16dd\	.	.	.	.	.	.	.	.	.	.
8A\J	.	.	16B/	.	16ee\	.	.	.	.	.	.	.	.	.	.
.	.	.	16d/JJ	.	16ff#\JJ	.	.	.	.	.	.	.	.	.	.
*	*	*	*Xrep	*	*	*	*	*	*	*	*	*	*	*	*
*	*	*	*Xtremolo	*	*	*	*	*	*	*	*	*	*	*	*
=23	=23	=23	=23	=23	=23	=23	=23	=23	=23	=23	=23	=23	=23	=23	=23
!LO:TX:t=P:problem:mixed beam	!	!	!	!	!LO:TX:t=P:problem:mixed beam	!	!	!	!	!	!	!	!	!	!
8BB/L	6 3	.	16B/LL	.	8gg\L	.	8.B\	Ky-	8.G/	Ky-	8.dd\	Ky-	8G/L	8g\L	.
.	.	.	16d/	.	.	.	.	.	.	.	.	.	.	.	.
8B\	.	.	16g/	.	8g/J	.	.	.	.	.	.	.	8G/J	8g\J	.
.	.	.	16d/JJ	.	.	.	16B\	-ri-	16G/	-ri-	16dd\	-ri-	.	.	.
*	*	*	*rep	*	*	*	*	*	*	*	*	*	*	*	*
8B\	.	.	16B/LL	.	4g/	.	4B\	-e	4G/	-e	4dd\	-e	4G/	4g\	.
.	.	.	16d/	.	.	.	.	.	.	.	.	.	.	.	.
8B\J	.	.	16g/	.	.	.	.	.	.	.	.	.	.	.	.
.	.	.	16d/JJ	.	.	.	.	.	.	.	.	.	.	.	.
*	*	*	*Xrep	*	*	*	*	*	*	*	*	*	*	*	*
*tremolo	*	*	*rep	*	*	*	*	*	*	*	*	*	*	*	*
8B\L	.	.	16B/LL	.	16g/LL	.	4r	.	4r	.	4r	.	2r	2r	.
.	.	.	16d/	.	16a/	.	.	.	.	.	.	.	.	.	.
8B\	.	.	16g/	.	16b/	.	.	.	.	.	.	.	.	.	.
.	.	.	16d/JJ	.	16cc/JJ	.	.	.	.	.	.	.	.	.	.
*Xtremolo	*	*	*Xrep	*	*	*	*	*	*	*	*	*	*	*	*
*	*	*	*rep	*	*	*	*	*	*	*	*	*	*	*	*
8B\	.	.	16B/LL	.	16dd\LL	.	8r	.	8r	.	8r	.	.	.	.
.	.	.	16d/	.	16ee\	.	.	.	.	.	.	.	.	.	.
8B\J	.	.	16g/	.	16ff#\	.	8B\	e-	8G/	e-	8dd\	e-	.	.	.
.	.	.	16d/JJ	.	16gg\JJ	.	.	.	.	.	.	.	.	.	.
*	*	*	*Xrep	*	*	*	*	*	*	*	*	*	*	*	*
=24	=24	=24	=24	=24	=24	=24	=24	=24	=24	=24	=24	=24	=24	=24	=24
!LO:TX:t=P:problem:mixed beam	!	!	!	!	!LO:TX:t=P:problem:mixed beam	!	!	!	!	!	!	!	!	!	!
8C/L	6 3	.	16c/LL	.	8gg\L	.	4c\	-lei-	4A\	-lei-	4ee\	-lei-	8a\L	8a\L	.
.	.	.	16e/	.	.	.	.	.	.	.	.	.	.	.	.
8c\	.	.	16g/	.	8a/J	.	.	.	.	.	.	.	8a\J	8a\J	.
.	.	.	16e/JJ	.	.	.	.	.	.	.	.	.	.	.	.
*	*	*	*rep	*	*	*	*	*	*	*	*	*	*	*	*
8c\	.	.	16c/LL	.	4a/	.	4c\	-son	4A\	-son	4ee\	-son	4a\	4a\	.
.	.	.	16e/	.	.	.	.	.	.	.	.	.	.	.	.
8c\J	.	.	16g/	.	.	.	.	.	.	.	.	.	.	.	.
.	.	.	16e/JJ	.	.	.	.	.	.	.	.	.	.	.	.
*	*	*	*Xrep	*	*	*	*	*	*	*	*	*	*	*	*
*tremolo	*	*	*rep	*	*	*	*	*	*	*	*	*	*	*	*
8c\L	.	.	16c/LL	.	16r	.	2r	.	2r	.	2r	.	2r	2r	.
.	.	.	16e/	.	16a/LL	.	.	.	.	.	.	.	.	.	.
8c\	.	.	16g/	.	16b/	.	.	.	.	.	.	.	.	.	.
.	.	.	16e/JJ	.	16cc/JJ	.	.	.	.	.	.	.	.	.	.
*Xtremolo	*	*	*Xrep	*	*	*	*	*	*	*	*	*	*	*	*
*	*	*	*rep	*	*	*	*	*	*	*	*	*	*	*	*
8c\	.	.	16c/LL	.	16dd\LL	.	.	.	.	.	.	.	.	.	.
.	.	.	16e/	.	16ee\	.	.	.	.	.	.	.	.	.	.
8c\J	.	.	16g/	.	16ff#\	.	.	.	.	.	.	.	.	.	.
.	.	.	16e/JJ	.	16gg\JJ	.	.	.	.	.	.	.	.	.	.
*	*	*	*Xrep	*	*	*	*	*	*	*	*	*	*	*	*
!	!	!	!	!	!LO:LB:g=original	!	!LO:LB:g=original	!	!	!	!	!	!	!	!
=25	=25	=25	=25	=25	=25	=25	=25	=25	=25	=25	=25	=25	=25	=25	=25
!	!	!	!LO:TX:t=P:problem:mixed beam	!	!	!	!	!	!	!	!	!	!	!	!
8D\L	.	.	8d/L	.	8gg/L	.	2d\	Chri-	2d\	Chri-	(4f#/	X-	0r	0r	.
8d\	.	.	8dd\	.	8ff#\	.	.	.	.	.	.	.	.	.	.
8d\	.	.	8cc\	.	8ee\	.	.	.	.	.	4a\)	.	.	.	.
8d\J	.	.	8b\J	.	8dd\J	.	.	.	.	.	.	.	.	.	.
*tremolo	*	*	*	*	*	*	*	*	*	*	*	*	*	*	*
8d\L	.	.	8b\L	.	8dd\L	.	4d\	-ste	4A\	-ste	4dd\	-ste	.	.	.
8d\	.	.	8a\	.	8cc\	.	.	.	.	.	.	.	.	.	.
8d\	.	.	8g\	.	8b\	.	4d\	e-	4A\	e-	4cc\	e-	.	.	.
8d\J	.	.	8a\J	.	8cc\J	.	.	.	.	.	.	.	.	.	.
*Xtremolo	*	*	*	*	*	*	*	*	*	*	*	*	*	*	*
=26	=26	=26	=26	=26	=26	=26	=26	=26	=26	=26	=26	=26	=26	=26	=26
8D#X\L	.	.	4a/	.	4cc\	.	2e\	-lei-	4A\	-lei-	4cc\	-lei-	.	.	.
8d#X\	.	.	.	.	.	.	.	.	.	.	.	.	.	.	.
8d#\	.	.	16b/LL	.	16dd\LL	.	.	.	16B\LL	.	16dd\LL	.	.	.	.
.	.	.	16a/	.	16cc\	.	.	.	16A\	.	16cc\	.	.	.	.
8d#\J	.	.	16g/	.	16b\	.	.	.	16G\	.	16b\	.	.	.	.
.	.	.	16a/JJ	.	16cc\JJ	.	.	.	16A\JJ	.	16cc\JJ	.	.	.	.
!	!	!	!	!	!	!	!	!	!LO:LB:g=original	!	!	!	!	!	!
8e\L	.	.	16f#/LL	.	4b\	.	4e\	-son	4G/	-son	4b\	-son	.	.	.
.	.	.	16g/	.	.	.	.	.	.	.	.	.	.	.	.
8e\	3	.	16e/	.	.	.	.	.	.	.	.	.	.	.	.
.	.	.	16g/JJ	.	.	.	.	.	.	.	.	.	.	.	.
8dn\	3	.	16d/LL	.	4r	.	4r	.	4r	.	4r	.	.	.	.
.	.	.	16f#/	.	.	.	.	.	.	.	.	.	.	.	.
8c\J	3	.	16c/	.	.	.	.	.	.	.	.	.	.	.	.
.	.	.	16e/JJ	.	.	.	.	.	.	.	.	.	.	.	.
!	!	!	!	!	!	!	!	!	!	!	!LO:LB:g=original	!	!	!LO:LB:g=original	!
=27	=27	=27	=27	=27	=27	=27	=27	=27	=27	=27	=27	=27	=27	=27	=27
!LO:TX:t=P:problem:mixed beam	!	!	!	!	!LO:TX:t=P:problem:mixed beam	!	!	!	!	!	!	!	!	!	!
8BB/L	6 3	.	16B/LL	.	8.gg\L	.	8.B\	Ky-	8.G/	Ky-	8.dd\	Ky-	8G/L	8g\L	.
.	.	.	16d/	.	.	.	.	.	.	.	.	.	.	.	.
8B\	.	.	16g/	.	.	.	.	.	.	.	.	.	8G/J	8g\J	.
.	.	.	16d/JJ	.	16g/Jk	.	16B\	-ri-	16G/	-ri-	16dd\	-ri-	.	.	.
*	*	*	*rep	*	*	*	*	*	*	*	*	*	*	*	*
8B\	.	.	16B/LL	.	4g/	.	4B\	-e	4G/	-e	4dd\	-e	4G/	4g\	.
.	.	.	16d/	.	.	.	.	.	.	.	.	.	.	.	.
8B\J	.	.	16g/	.	.	.	.	.	.	.	.	.	.	.	.
.	.	.	16d/JJ	.	.	.	.	.	.	.	.	.	.	.	.
*	*	*	*Xrep	*	*	*	*	*	*	*	*	*	*	*	*
*tremolo	*	*	*rep	*	*	*	*	*	*	*	*	*	*	*	*
8B\L	.	.	16B/LL	.	16g/LL	.	4r	.	4r	.	4r	.	2r	2r	.
.	.	.	16d/	.	16a/	.	.	.	.	.	.	.	.	.	.
8B\	.	.	16g/	.	16b/	.	.	.	.	.	.	.	.	.	.
.	.	.	16d/JJ	.	16cc/JJ	.	.	.	.	.	.	.	.	.	.
*	*	*	*Xrep	*	*	*	*	*	*	*	*	*	*	*	*
*	*	*	*rep	*	*	*	*	*	*	*	*	*	*	*	*
8B\	.	.	16B/LL	.	16dd\LL	.	8r	.	8r	.	8r	.	.	.	.
.	.	.	16d/	.	16ee\	.	.	.	.	.	.	.	.	.	.
8B\J	.	.	16g/	.	16ff#\	.	8B\	e-	8G/	e-	8dd\	e-	.	.	.
.	.	.	16d/JJ	.	16gg\JJ	.	.	.	.	.	.	.	.	.	.
*Xtremolo	*	*	*Xrep	*	*	*	*	*	*	*	*	*	*	*	*
!	!	!	!	!	!	!	!	!	!	!	!	!	!LO:LB:g=original	!	!
=28	=28	=28	=28	=28	=28	=28	=28	=28	=28	=28	=28	=28	=28	=28	=28
!	!	!	!	!	!LO:TX:t=P:problem:mixed beam	!	!	!	!	!	!	!	!	!	!
!LO:TX:t=P:problem:mixed beam	!	!	!	!	!LO:TX:t=P:problem:LO:N:vis=8	!	!	!	!	!	!	!	!	!	!
8C/L	6 3	.	16c/LL	.	8.gg\L	.	4c\	-lei-	4A\	-lei-	4ee\	-lei-	8a\L	8a\L	.
.	.	.	16e/	.	.	.	.	.	.	.	.	.	.	.	.
8c\	.	.	16g/	.	.	.	.	.	.	.	.	.	8a\J	8a\J	.
.	.	.	16e/JJ	.	16a/Jk	.	.	.	.	.	.	.	.	.	.
!	!	!	!LO:LB:g=original	!	!	!	!	!	!	!	!	!	!	!	!
8c\	.	.	16c/LL	.	4a/	.	4c\	-son	4A\	-son	4ee\	-son	4a\	4a\	.
.	.	.	16e/	.	.	.	.	.	.	.	.	.	.	.	.
8c\J	.	.	16g/	.	.	.	.	.	.	.	.	.	.	.	.
.	.	.	16e/JJ	.	.	.	.	.	.	.	.	.	.	.	.
*tremolo	*	*	*rep	*	*	*	*	*	*	*	*	*	*	*	*
8c\L	.	.	16c/LL	.	16r	.	2r	.	2r	.	2r	.	2r	2r	.
.	.	.	16e/	.	16a/LL	.	.	.	.	.	.	.	.	.	.
8c\	.	.	16g/	.	16b/	.	.	.	.	.	.	.	.	.	.
.	.	.	16e/JJ	.	16cc/JJ	.	.	.	.	.	.	.	.	.	.
*	*	*	*Xrep	*	*	*	*	*	*	*	*	*	*	*	*
*	*	*	*rep	*	*	*	*	*	*	*	*	*	*	*	*
8c\	.	.	16c/LL	.	16dd\LL	.	.	.	.	.	.	.	.	.	.
.	.	.	16e/	.	16ee\	.	.	.	.	.	.	.	.	.	.
8c\J	.	.	16g/	.	16ff#\	.	.	.	.	.	.	.	.	.	.
.	.	.	16e/JJ	.	16gg\JJ	.	.	.	.	.	.	.	.	.	.
*Xtremolo	*	*	*Xrep	*	*	*	*	*	*	*	*	*	*	*	*
!LO:LB:g=original	!	!	!	!	!	!	!	!	!	!	!	!	!	!	!
=29	=29	=29	=29	=29	=29	=29	=29	=29	=29	=29	=29	=29	=29	=29	=29
!	!	!	!LO:TX:t=P:problem:mixed beam	!	!	!	!	!	!	!	!	!	!	!	!
4D\	.	.	8d/L	.	8gg\L	.	2r	.	8r	.	8r	.	2r	2r	.
.	.	.	8dd\	.	8ff#\	.	.	.	8e\	Chri-	8gg\	X-	.	.	.
4r	.	.	8cc\	.	8ee\	.	.	.	8d\	-ste	8ff#\	-ste	.	.	.
.	.	.	8b\J	.	8dd\J	.	.	.	8c\	e-	8ee\	e-	.	.	.
8r	.	.	8b/L	.	8dd\L	.	8r	.	8B\L	-lei-	8dd\L	-lei-	8b\L	8dd\L	.
!LO:TX:t=P:problem:mixed beam	!	!	!	!	!	!	!	!	!	!	!	!	!	!	!
8c/L	.	.	8e/	.	8cc\	.	8c\	e-	8A\	.	8cc\	.	8a\	8cc\	.
!	!	!	!	!	!	!	!LO:TX:t=P:problem:mixed beam	!	!	!	!	!	!	!	!
8d/	6 4	.	8d/	.	8b\	.	8d\L	-lei-	8G\	.	8b\	.	8g\	8b\	.
8D\J	5 3	.	8c/J	.	8a\J	.	8D/J	.	8F#\J	.	8a\J	.	8d\J	8a\J	.
=30	=30	=30	=30	=30	=30	=30	=30	=30	=30	=30	=30	=30	=30	=30	=30
4G\	.	.	4B/	.	4g/	.	4G\	-son	4G/	-son	4g\	son	4B/	4g\	.
4GG/	.	.	4b/ 4d/ 4G/	.	4gg/ 4b/ 4d/ 4G/	.	4r	.	4r	.	4r	.	8g\L	8b\L	.
.	.	.	.	.	.	.	.	.	.	.	.	.	8g\J	8b\J	.
4GG/	.	.	4b/ 4d/ 4G/	.	4gg/ 4b/ 4d/ 4G/	.	2r	.	2r	.	2r	.	4g\	4b\	.
4r	.	.	4r	.	4r	.	.	.	.	.	.	.	4r	4r	.
!	!	!	!	!	!LO:LB:g=original	!	!LO:LB:g=original	!	!	!	!	!	!	!	!
=31	=31	=31	=31	=31	=31	=31	=31	=31	=31	=31	=31	=31	=31	=31	=31
!LO:TX:t=P:problem:mixed beam	!	!	!	!	!	!	!	!	!	!	!	!	!	!	!
8BB/L	5 #	p	4d#X/	.	8f#/L	.	4B\	Chri-	4F#/	Chri-	4dd#X\	X-	4B/	4b\	p
8B\	.	.	.	.	8b/	.	.	.	.	.	.	.	.	.	.
8B\	6 4	.	4e/	.	8g/	.	4B\	-ste	4G/	-ste	4ee\	-ste	4B/	4b\	.
.	7 5	.	.	.	.	.	.	.	.	.	.	.	.	.	.
8B\J	.	.	.	.	8b/J	.	.	.	.	.	.	.	.	.	.
.	5 #	.	.	.	.	.	.	.	.	.	.	.	.	.	.
*tremolo	*	*	*	*	*	*	*	*	*	*	*	*	*	*	*
8B\L	_ _	.	4f#/	.	8a/L	.	4B\	au-	4A/	au-	4ff#\	au-	4B/	4b\	.
8B\	x	.	.	.	8b/	.	.	.	.	.	.	.	.	.	.
8B\	.	.	4d#/	.	8f#/	.	4B\	-di	4F#/	-di	4dd#\	-di	4B/	4b\	.
8B\J	.	.	.	.	8b/J	.	.	.	.	.	.	.	.	.	.
*Xtremolo	*	*	*	*	*	*	*	*	*	*	*	*	*	*	*
!	!	!	!	!	!	!	!	!	!LO:LB:g=original	!	!	!	!	!	!
=32	=32	=32	=32	=32	=32	=32	=32	=32	=32	=32	=32	=32	=32	=32	=32
!	!	!LO:DY:t=for.	!	!	!LO:TX:t=P:problem:mixed beam	!LO:DY:rj	!	!	!	!	!	!	!	!	!
4E\	x 3	f	8e/L	.	8g/L	f	4E\	nos	4G/	nos	4ee\	nos	4B/	4b\	.
.	.	.	8b/	.	8bb\	.	.	.	.	.	.	.	.	.	.
4r	.	.	8f#/	.	8ff#\	.	4r	.	4r	.	4r	.	4r	4r	.
.	.	.	8g/J	.	8gg\J	.	.	.	.	.	.	.	.	.	.
2r	.	.	8e/L	.	8ee\L	.	2r	.	2r	.	2r	.	2r	2r	.
.	.	.	8B/	.	8b\	.	.	.	.	.	.	.	.	.	.
.	.	.	8g/	.	8g\	.	.	.	.	.	.	.	.	.	.
.	.	.	8e/J	.	8e\J	.	.	.	.	.	.	.	.	.	.
!	!	!	!	!	!	!	!	!	!	!	!LO:LB:g=original	!	!	!	!
=33	=33	=33	=33	=33	=33	=33	=33	=33	=33	=33	=33	=33	=33	=33	=33
!LO:TX:t=P:problem:mixed beam	!	!	!	!	!	!	!	!	!	!	!	!	!	!	!
8BB/L	5 #	p	4d#X/	.	8f#/L	p	4B\	Chri-	4F#/	Chri-	4dd#X\	X-	4B/	4b\	.
8B\	.	.	.	.	8b/	.	.	.	.	.	.	.	.	.	.
8B\	6 4	.	4e/	.	8g/	.	8B\	-ste	8G/	-ste	8ee\	-ste	4B/	4b\	.
8B\J	.	.	.	.	8b/J	.	8B\	e-	8G/	e-	8ee\	e-	.	.	.
*tremolo	*	*	*	*	*	*	*	*	*	*	*	*	*	*	*
.	7 5	.	.	.	.	.	.	.	.	.	.	.	.	.	.
8B\L	.	.	4f#/	.	8a/L	.	4B\	-xau-	4A/	-xau-	4ff#\	-xau-	4B/	4b\	.
8B\	.	.	.	.	8b/	.	.	.	.	.	.	.	.	.	.
8B\	5 #	.	4d#/	.	8f#/	.	4B\	-di	4F#/	-di	4dd#\	-di	4B/	4b\	.
8B\J	.	.	.	.	8b/J	.	.	.	.	.	.	.	.	.	.
*Xtremolo	*	*	*	*	*	*	*	*	*	*	*	*	*	*	*
=34	=34	=34	=34	=34	=34	=34	=34	=34	=34	=34	=34	=34	=34	=34	=34
!	!	!LO:DY:t=for.	!	!	!	!LO:DY:rj	!	!	!	!	!	!	!	!	!
4E\	x 3	f	16e/LL	.	16g/LL	f	4E\	nos	4G/	nos	4ee\	nos	4B/	4b\	.
.	.	.	16e/	.	16e/	.	.	.	.	.	.	.	.	.	.
.	.	.	16f#/	.	16f#/	.	.	.	.	.	.	.	.	.	.
.	.	.	16g/JJ	.	16g/JJ	.	.	.	.	.	.	.	.	.	.
4r	.	.	16a\LL	.	16a\LL	.	4r	.	4r	.	4r	.	4r	4r	.
.	.	.	16b\	.	16b\	.	.	.	.	.	.	.	.	.	.
.	.	.	16cc#X\	.	16cc#X\	.	.	.	.	.	.	.	.	.	.
.	.	.	16dd#X\JJ	.	16dd#X\JJ	.	.	.	.	.	.	.	.	.	.
2r	.	.	16ee\LL	.	16ee\LL	.	2r	.	2r	.	2r	.	2r	2r	.
.	.	.	16ff#\	.	16ff#\	.	.	.	.	.	.	.	.	.	.
.	.	.	16gg\	.	16gg\	.	.	.	.	.	.	.	.	.	.
.	.	.	16dd#X\JJ	.	16dd#X\JJ	.	.	.	.	.	.	.	.	.	.
.	.	.	4ee\	.	4ee\	.	.	.	.	.	.	.	.	.	.
!	!	!	!LO:LB:g=original	!	!	!	!	!	!	!	!	!	!LO:LB:g=original	!LO:LB:g=original	!
=35	=35	=35	=35	=35	=35	=35	=35	=35	=35	=35	=35	=35	=35	=35	=35
!LO:TX:t=P:problem:mixed beam	!	!	!	!	!	!LO:DY:rj	!	!	!	!	!	!	!	!	!
8AA/L	5 #	p	4c#X/	.	8e/L	p	4A\	Chri-	4e\	Chri-	4cc#X\	X-	4a\	4a\	.
8A\	.	.	.	.	8a/	.	.	.	.	.	.	.	.	.	.
8A\	6 4	.	4dn/	.	8f#/	.	4A\	-ste	4f#\	-ste	4dd\	-ste	4a\	4a\	.
8A\J	.	.	.	.	8a/J	.	.	.	.	.	.	.	.	.	.
*tremolo	*	*	*	*	*	*	*	*	*	*	*	*	*	*	*
8A\L	7 5	.	4e/	.	8g/L	.	4A\	au-	4g\	au-	4ee\	au-	4a\	4a\	.
8A\	.	.	.	.	8a/	.	.	.	.	.	.	.	.	.	.
8A\	5 #	.	4c#/	.	8e/	.	4A\	-di	4e\	-di	4cc#\	-di	4a\	4a\	.
8A\J	.	.	.	.	8a/J	.	.	.	.	.	.	.	.	.	.
*Xtremolo	*	*	*	*	*	*	*	*	*	*	*	*	*	*	*
=36	=36	=36	=36	=36	=36	=36	=36	=36	=36	=36	=36	=36	=36	=36	=36
!	!	!LO:DY:t=for.	!	!	!LO:TX:t=P:problem:mixed beam	!LO:DY:rj	!	!	!	!	!	!	!	!	!
4D\	x 3	f	8d/L	.	8f#/L	f	4D\	nos	4f#\	nos	4dd\	nos	4a\	4a\	.
.	.	.	8a/	.	8aa\	.	.	.	.	.	.	.	.	.	.
4r	.	.	8e#X/	.	8ee#X\	.	4r	.	4r	.	4r	.	4r	4r	.
.	.	.	8f#/J	.	8ff#\J	.	.	.	.	.	.	.	.	.	.
2r	.	.	8d/L	.	8dd\L	.	2r	.	2r	.	2r	.	2r	2r	.
.	.	.	8A/	.	8a\	.	.	.	.	.	.	.	.	.	.
.	.	.	8f#/	.	8f#\	.	.	.	.	.	.	.	.	.	.
.	.	.	8d/J	.	8d\J	.	.	.	.	.	.	.	.	.	.
!	!	!	!	!	!LO:LB:g=original	!	!LO:LB:g=original	!	!	!	!	!	!	!	!
=37	=37	=37	=37	=37	=37	=37	=37	=37	=37	=37	=37	=37	=37	=37	=37
*	*	*	*	*	*	*	*	*	*	*	*	*ij	*	*	*
!LO:TX:t=P:problem:mixed beam	!	!	!	!	!	!	!	!	!	!	!	!	!	!	!
8AA/L	5 #.	p	4c#X/	.	8e/L	p	4A\	Chri-	4e\	Chri-	4cc#X\	X-	4a\	4a\	.
8A\	.	.	.	.	8a/	.	.	.	.	.	.	.	.	.	.
8A\	6 4	.	4d/	.	8f#/	.	8A\	-ste	8f#\	-ste	4dd\	-ste	4a\	4a\	.
8A\J	.	.	.	.	8a/J	.	8A\	e-	8f#\	e-	.	.	.	.	.
*tremolo	*	*	*	*	*	*	*	*	*	*	*	*	*	*	*
.	7 5	.	.	.	.	.	.	.	.	.	.	.	.	.	.
8A\L	.	.	4e/	.	8g/L	.	4A\	-xau-	4g\	-xau-	4ee\	au-	4a\	4a\	.
8A\	.	.	.	.	8a/	.	.	.	.	.	.	.	.	.	.
8A\	5 #	.	4c#/	.	8e/	.	4A\	-di	4e\	-di	4cc#\	-di	4a\	4a\	.
8A\J	.	.	.	.	8a/J	.	.	.	.	.	.	.	.	.	.
*Xtremolo	*	*	*	*	*	*	*	*	*	*	*	*	*	*	*
!LO:LB:g=original	!	!	!	!	!	!	!	!	!LO:LB:g=original	!	!	!	!	!	!
=38	=38	=38	=38	=38	=38	=38	=38	=38	=38	=38	=38	=38	=38	=38	=38
!	!	!LO:DY:t=for.	!	!	!	!LO:DY:rj	!	!	!	!	!	!	!	!	!
4D\	x 3	f	16d/LL	.	16f#/LL	f	4D\	nos	4f#\	nos	4dd\	nos	4a\	4a\	.
*	*	*	*	*	*	*	*	*	*	*	*	*Xij	*	*	*
.	.	.	16d/	.	16d/	.	.	.	.	.	.	.	.	.	.
.	.	.	16e/	.	16e/	.	.	.	.	.	.	.	.	.	.
.	.	.	16f#/JJ	.	16f#/JJ	.	.	.	.	.	.	.	.	.	.
4r	.	.	16g/LL	.	16g/LL	.	4r	.	4r	.	4r	.	4r	4r	.
.	.	.	16a/	.	16a/	.	.	.	.	.	.	.	.	.	.
.	.	.	16b/	.	16b/	.	.	.	.	.	.	.	.	.	.
.	.	.	16cc#X/JJ	.	16cc#X/JJ	.	.	.	.	.	.	.	.	.	.
2r	.	.	16dd\LL	.	16dd\LL	.	2r	.	2r	.	2r	.	2r	2r	.
.	.	.	16ee\	.	16ee\	.	.	.	.	.	.	.	.	.	.
.	.	.	16ff#\	.	16ff#\	.	.	.	.	.	.	.	.	.	.
.	.	.	16cc#X\JJ	.	16cc#X\JJ	.	.	.	.	.	.	.	.	.	.
.	.	.	4dd\	.	4dd\	.	.	.	.	.	.	.	.	.	.
!	!	!	!	!	!	!	!	!	!	!	!LO:LB:g=original	!	!	!	!
=39	=39	=39	=39	=39	=39	=39	=39	=39	=39	=39	=39	=39	=39	=39	=39
*tremolo	*	*	*	*	*	*	*	*	*	*	*	*	*	*	*
8D\L	8 3	.	16d/LL	.	8dd\L	.	2d\	Chri-	2F#/	Chri-	2dd\	X-	1D/	1d/	.
.	.	.	16f#/	.	.	.	.	.	.	.	.	.	.	.	.
8D\	.	.	16a/	.	8ff#\J	.	.	.	.	.	.	.	.	.	.
.	.	.	16f#/JJ	.	.	.	.	.	.	.	.	.	.	.	.
*	*	*	*rep	*	*2\right	*	*	*	*	*	*	*	*	*	*
8D\	.	.	16d/LL	.	2aa\	.	.	.	.	.	.	.	.	.	.
.	.	.	16f#/	.	.	.	.	.	.	.	.	.	.	.	.
8D\J	.	.	16a/	.	.	.	.	.	.	.	.	.	.	.	.
.	.	.	16f#/JJ	.	.	.	.	.	.	.	.	.	.	.	.
*	*	*	*Xrep	*	*	*	*	*	*	*	*	*	*	*	*
*	*	*	*rep	*	*	*	*	*	*	*	*	*	*	*	*
8D\L	_ _	.	16d/LL	.	.	.	2d\	-ste	2F#/	-ste	2dd\	-ste	.	.	.
.	x	.	16f#/	.	.	.	.	.	.	.	.	.	.	.	.
8D\	.	.	16a/	.	.	.	.	.	.	.	.	.	.	.	.
.	.	.	16f#/JJ	.	.	.	.	.	.	.	.	.	.	.	.
*	*	*	*Xrep	*	*	*	*	*	*	*	*	*	*	*	*
*	*	*	*rep	*	*	*	*	*	*	*	*	*	*	*	*
8D\	.	.	16d/LL	.	16gg\LL	.	.	.	.	.	.	.	.	.	.
.	.	.	16f#/	.	16ff#\	.	.	.	.	.	.	.	.	.	.
8D\J	.	.	16a/	.	16ee\	.	.	.	.	.	.	.	.	.	.
.	.	.	16f#/JJ	.	16dd\JJ	.	.	.	.	.	.	.	.	.	.
*	*	*	*Xrep	*	*	*	*	*	*	*	*	*	*	*	*
=40	=40	=40	=40	=40	=40	=40	=40	=40	=40	=40	=40	=40	=40	=40	=40
8D\L	+ 4	.	16e/LL	.	8dd\L	.	4.c#X\	au-	4.G/	au-	4.ee\	au-	1D/	1d/	.
.	.	.	16g/	.	.	.	.	.	.	.	.	.	.	.	.
8D\	.	.	16a/	.	8cc#X\	.	.	.	.	.	.	.	.	.	.
.	.	.	16g/JJ	.	.	.	.	.	.	.	.	.	.	.	.
*	*	*	*rep	*	*	*	*	*	*	*	*	*	*	*	*
8D\	.	.	16e/LL	.	8cc#\	.	.	.	.	.	.	.	.	.	.
.	.	.	16g/	.	.	.	.	.	.	.	.	.	.	.	.
8D\J	.	.	16a/	.	8cc#\J	.	8c#\	-di	8G/	-di	8ee\	-di	.	.	.
.	.	.	16g/JJ	.	.	.	.	.	.	.	.	.	.	.	.
*	*	*	*Xrep	*	*	*	*	*	*	*	*	*	*	*	*
*	*	*	*rep	*	*	*	*	*	*	*	*	*	*	*	*
8D\L	_ _	.	16e/LL	.	4cc#\	.	4c#\	nos	4G/	nos	4ee\	nos	.	.	.
.	x	.	16g/	.	.	.	.	.	.	.	.	.	.	.	.
8D\	.	.	16a/	.	.	.	.	.	.	.	.	.	.	.	.
.	.	.	16g/JJ	.	.	.	.	.	.	.	.	.	.	.	.
*	*	*	*Xrep	*	*	*	*	*	*	*	*	*	*	*	*
*	*	*	*rep	*	*	*	*	*	*	*	*	*	*	*	*
8D\	.	.	16e/LL	.	4r	.	4r	.	4r	.	4r	.	.	.	.
.	.	.	16g/	.	.	.	.	.	.	.	.	.	.	.	.
8D\J	.	.	16a/	.	.	.	.	.	.	.	.	.	.	.	.
.	.	.	16g/JJ	.	.	.	.	.	.	.	.	.	.	.	.
*	*	*	*Xrep	*	*	*	*	*	*	*	*	*	*	*	*
=41	=41	=41	=41	=41	=41	=41	=41	=41	=41	=41	=41	=41	=41	=41	=41
*	*	*	*	*	*	*	*	*	*	*	*	*ij	*	*	*
8D\L	n7 5	.	16f#/LL	.	8dd\L	.	2cn\	Chri-	2A\	Chri-	2ff#\	X-	1D/	1d/	.
.	.	.	16a/	.	.	.	.	.	.	.	.	.	.	.	.
8D\	.	.	16ccn/	.	8ff#\J	.	.	.	.	.	.	.	.	.	.
.	.	.	16a/JJ	.	.	.	.	.	.	.	.	.	.	.	.
*	*	*	*rep	*	*	*	*	*	*	*	*	*	*	*	*
8D\	.	.	16f#/LL	.	2aa\	.	.	.	.	.	.	.	.	.	.
.	.	.	16a/	.	.	.	.	.	.	.	.	.	.	.	.
8D\J	.	.	16cc/	.	.	.	.	.	.	.	.	.	.	.	.
.	.	.	16a/JJ	.	.	.	.	.	.	.	.	.	.	.	.
*	*	*	*Xrep	*	*	*	*	*	*	*	*	*	*	*	*
!	!	!	!LO:LB:g=original	!	!	!	!	!	!	!	!	!	!	!	!
8D\L	_ _	.	16f#/LL	.	.	.	4c\	-ste	4A\	-ste	4ff#\	-ste	.	.	.
.	x	.	16a/	.	.	.	.	.	.	.	.	.	.	.	.
8D\	.	.	16ccn/	.	.	.	.	.	.	.	.	.	.	.	.
.	.	.	16a/JJ	.	.	.	.	.	.	.	.	.	.	.	.
*	*	*	*rep	*	*	*	*	*	*	*	*	*	*	*	*
8D\	.	.	16f#/LL	.	16gg\LL	.	4c\	ex-	4A\	ex-	4ff#\	e-	.	.	.
.	.	.	16a/	.	16ff#\	.	.	.	.	.	.	.	.	.	.
8D\J	.	.	16cc/	.	16ee\	.	.	.	.	.	.	.	.	.	.
.	.	.	16a/JJ	.	16dd\JJ	.	.	.	.	.	.	.	.	.	.
*	*	*	*Xrep	*	*	*	*	*	*	*	*	*	*	*	*
=42	=42	=42	=42	=42	=42	=42	=42	=42	=42	=42	=42	=42	=42	=42	=42
8D\L	6 4	.	16d/LL	.	8aa\L	.	4.B\	-au-	4.B\	-au-	4.gg#X\	-xau-	1D/	1d/	.
.	.	.	16g/	.	.	.	.	.	.	.	.	.	.	.	.
8D\	.	.	16b/	.	8gg\	.	.	.	.	.	.	.	.	.	.
.	.	.	16g/JJ	.	.	.	.	.	.	.	.	.	.	.	.
*	*	*	*rep	*	*	*	*	*	*	*	*	*	*	*	*
8D\	.	.	16d/LL	.	8gg\	.	.	.	.	.	.	.	.	.	.
.	.	.	16g/	.	.	.	.	.	.	.	.	.	.	.	.
8D\J	.	.	16b/	.	8gg\J	.	8B\	-di	8B\	-di	8gg#\	-di	.	.	.
.	.	.	16g/JJ	.	.	.	.	.	.	.	.	.	.	.	.
*	*	*	*Xrep	*	*	*	*	*	*	*	*	*	*	*	*
*	*	*	*rep	*	*	*	*	*	*	*	*	*	*	*	*
8D\L	_ _	.	16d/LL	.	4gg\	.	4B\	nos	4B\	nos	4gg#\	nos	.	.	.
*	*	*	*	*	*	*	*	*	*	*	*	*Xij	*	*	*
.	x	.	16g/	.	.	.	.	.	.	.	.	.	.	.	.
8D\	.	.	16b/	.	.	.	.	.	.	.	.	.	.	.	.
.	.	.	16g/JJ	.	.	.	.	.	.	.	.	.	.	.	.
*	*	*	*Xrep	*	*	*	*	*	*	*	*	*	*	*	*
*	*	*	*rep	*	*	*	*	*	*	*	*	*	*	*	*
8D\	.	.	16d/LL	.	4r	.	4r	.	4r	.	4r	.	.	.	.
.	.	.	16g/	.	.	.	.	.	.	.	.	.	.	.	.
8D\J	.	.	16b/	.	.	.	.	.	.	.	.	.	.	.	.
.	.	.	16g/JJ	.	.	.	.	.	.	.	.	.	.	.	.
*	*	*	*Xrep	*	*	*	*	*	*	*	*	*	*	*	*
!	!	!	!	!	!LO:LB:g=original	!	!LO:LB:g=original	!	!	!	!	!	!	!	!
=43	=43	=43	=43	=43	=43	=43	=43	=43	=43	=43	=43	=43	=43	=43	=43
8D\L	+ 4	.	16e/LL	.	4.gg\	.	4.c#X\	Ky-	4.A\	Ky-	4.gg\	Ky-	1D/	1d/	.
.	.	.	16g/	.	.	.	.	.	.	.	.	.	.	.	.
8D\	.	.	16a/	.	.	.	.	.	.	.	.	.	.	.	.
.	.	.	16g/JJ	.	.	.	.	.	.	.	.	.	.	.	.
*	*	*	*rep	*	*	*	*	*	*	*	*	*	*	*	*
8D\	.	.	16e/LL	.	.	.	.	.	.	.	.	.	.	.	.
.	.	.	16g/	.	.	.	.	.	.	.	.	.	.	.	.
8D\J	.	.	16a/	.	16ff#\LL	.	8c#\yy	-ri-	8A\	-ri-	16ff#\LL	-ri-	.	.	.
.	.	.	16g/JJ	.	16ee\JJ	.	.	.	.	.	16ee\JJ	.	.	.	.
*	*	*	*Xrep	*	*	*	*	*	*	*	*	*	*	*	*
*	*	*	*rep	*	*	*	*	*	*	*	*	*	*	*	*
8D\L	_ _	.	16e/LL	.	8ee\L	.	4c#\	-e	8G/L	-e	8ee\L	-e	.	.	.
.	x	.	16g/	.	.	.	.	.	.	.	.	.	.	.	.
8D\	.	.	16a/	.	8dd\	.	.	.	8A/J	.	8dd\J	.	.	.	.
.	.	.	16g/JJ	.	.	.	.	.	.	.	.	.	.	.	.
*	*	*	*Xrep	*	*	*	*	*	*	*	*	*	*	*	*
*	*	*	*rep	*	*	*	*	*	*	*	*	*	*	*	*
8D\	.	.	16e/LL	.	8dd\	.	4c#\	e-	8G/L	e-	8dd\L	e-	.	.	.
.	.	.	16g/	.	.	.	.	.	.	.	.	.	.	.	.
8D\J	.	.	16a/	.	8cc#X\J	.	.	.	8A/J	.	8cc#X\J	.	.	.	.
.	.	.	16g/JJ	.	.	.	.	.	.	.	.	.	.	.	.
*	*	*	*Xrep	*	*	*	*	*	*	*	*	*	*	*	*
!	!	!	!	!	!	!	!	!	!LO:LB:g=original	!	!	!	!	!	!
=44	=44	=44	=44	=44	=44	=44	=44	=44	=44	=44	=44	=44	=44	=44	=44
8D\L	8 3	.	16d/LL	.	16dd\LL	.	4d\	-lei-	8G/L	-lei-	8ee\L	-lei-	1D/	1d/	.
.	.	.	16f#/	.	16dd\	.	.	.	.	.	.	.	.	.	.
8D\	.	.	16a/	.	16ff#\	.	.	.	8F#/J	.	8dd\J	.	.	.	.
.	.	.	16f#/JJ	.	16ff#\JJ	.	.	.	.	.	.	.	.	.	.
*	*	*	*rep	*	*	*	*	*	*	*	*	*	*	*	*
8D\	.	.	16d/LL	.	16aa\LL	.	4D\	-son	4F#/	-son	4dd\	-son	.	.	.
.	.	.	16f#/	.	16aa\	.	.	.	.	.	.	.	.	.	.
8D\J	.	.	16a/	.	16ddd\	.	.	.	.	.	.	.	.	.	.
.	.	.	16f#/JJ	.	16ddd\JJ	.	.	.	.	.	.	.	.	.	.
*	*	*	*Xrep	*	*	*	*	*	*	*	*	*	*	*	*
*	*	*	*rep	*	*	*	*	*	*	*	*	*	*	*	*
8D\L	.	.	16d/LL	.	16aa\LL	.	2r	.	2r	.	2r	.	.	.	.
.	.	.	16f#/	.	16aa\	.	.	.	.	.	.	.	.	.	.
8D\	.	.	16a/	.	16ff#\	.	.	.	.	.	.	.	.	.	.
.	.	.	16f#/JJ	.	16ff#\JJ	.	.	.	.	.	.	.	.	.	.
*	*	*	*Xrep	*	*	*	*	*	*	*	*	*	*	*	*
*	*	*	*rep	*	*	*	*	*	*	*	*	*	*	*	*
8D\	.	.	16d/LL	.	16aa\LL	.	.	.	.	.	.	.	.	.	.
.	.	.	16f#/	.	16aa\	.	.	.	.	.	.	.	.	.	.
8D\J	.	.	16a/	.	16ff#\	.	.	.	.	.	.	.	.	.	.
.	.	.	16f#/JJ	.	16ff#\JJ	.	.	.	.	.	.	.	.	.	.
*	*	*	*Xrep	*	*	*	*	*	*	*	*	*	*	*	*
!	!	!	!	!	!	!	!	!	!	!	!LO:LB:g=original	!	!	!	!
=45	=45	=45	=45	=45	=45	=45	=45	=45	=45	=45	=45	=45	=45	=45	=45
8D\L	+ 4	.	16e/LL	.	4gg\	.	2c#X\	Chri-	2A/	Chri-	2gg\	X-	1D/	1d/	.
.	.	.	16g/	.	.	.	.	.	.	.	.	.	.	.	.
8D\	.	.	16a/	.	.	.	.	.	.	.	.	.	.	.	.
.	.	.	16g/JJ	.	.	.	.	.	.	.	.	.	.	.	.
*	*	*	*rep	*	*	*	*	*	*	*	*	*	*	*	*
8D\	.	.	16e/LL	.	16gg\LL	.	.	.	.	.	.	.	.	.	.
.	.	.	16g/	.	16aa\	.	.	.	.	.	.	.	.	.	.
8D\J	.	.	16a/	.	16bb\	.	.	.	.	.	.	.	.	.	.
.	.	.	16g/JJ	.	16aa\JJ	.	.	.	.	.	.	.	.	.	.
*	*	*	*Xrep	*	*	*	*	*	*	*	*	*	*	*	*
*	*	*	*rep	*	*	*	*	*	*	*	*	*	*	*	*
8D\L	.	.	16e/LL	.	16gg\LL	.	4c#\	-ste	8G/L	-ste	4ee\	-ste	.	.	.
.	.	.	16g/	.	16ff#\	.	.	.	.	.	.	.	.	.	.
8D\	.	.	16a/	.	16ee\	.	.	.	8A/J	.	.	.	.	.	.
.	.	.	16g/JJ	.	16dd\JJ	.	.	.	.	.	.	.	.	.	.
*	*	*	*Xrep	*	*	*	*	*	*	*	*	*	*	*	*
*	*	*	*rep	*	*	*	*	*	*	*	*	*	*	*	*
8D\	.	.	16e/LL	.	16cc#X\LL	.	4c#\	e-	8G/L	e-	4cc#X\	e-	.	.	.
.	.	.	16g/	.	16dd\	.	.	.	.	.	.	.	.	.	.
8D\J	.	.	16a/	.	16ee\	.	.	.	8A/J	.	.	.	.	.	.
.	.	.	16g/JJ	.	16cc#\JJ	.	.	.	.	.	.	.	.	.	.
*	*	*	*Xrep	*	*	*	*	*	*	*	*	*	*	*	*
=46	=46	=46	=46	=46	=46	=46	=46	=46	=46	=46	=46	=46	=46	=46	=46
8D\L	8 3	.	16d/LL	.	16dd\LL	.	4d\	-lei-	8G/L	-lei-	8ee\L	-lei-	1D/	1d/	.
.	.	.	16f#/	.	16dd\	.	.	.	.	.	.	.	.	.	.
8D\	.	.	16a/	.	16ff#\	.	.	.	8F#/J	.	8dd\J	.	.	.	.
.	.	.	16f#/JJ	.	16ff#\JJ	.	.	.	.	.	.	.	.	.	.
*	*	*	*rep	*	*	*	*	*	*	*	*	*	*	*	*
8D\	.	.	16d/LL	.	16aa\LL	.	4D\	-son	4F#/	-son	4dd\	-son	.	.	.
.	.	.	16f#/	.	16aa\	.	.	.	.	.	.	.	.	.	.
8D\J	.	.	16a/	.	16ddd\	.	.	.	.	.	.	.	.	.	.
.	.	.	16f#/JJ	.	16ddd\JJ	.	.	.	.	.	.	.	.	.	.
*	*	*	*Xrep	*	*	*	*	*	*	*	*	*	*	*	*
*	*	*	*rep	*	*	*	*	*	*	*	*	*	*	*	*
8D\L	.	.	16d/LL	.	16aa\LL	.	2r	.	2r	.	2r	.	.	.	.
.	.	.	16f#/	.	16aa\	.	.	.	.	.	.	.	.	.	.
8D\	.	.	16a/	.	16ff#\	.	.	.	.	.	.	.	.	.	.
.	.	.	16f#/JJ	.	16ff#\JJ	.	.	.	.	.	.	.	.	.	.
*	*	*	*Xrep	*	*	*	*	*	*	*	*	*	*	*	*
*	*	*	*rep	*	*	*	*	*	*	*	*	*	*	*	*
8D\	.	.	16d/LL	.	16aa\LL	.	.	.	.	.	.	.	.	.	.
.	.	.	16f#/	.	16aa\	.	.	.	.	.	.	.	.	.	.
8D\J	.	.	16a/	.	16ff#\	.	.	.	.	.	.	.	.	.	.
.	.	.	16f#/JJ	.	16ff#\JJ	.	.	.	.	.	.	.	.	.	.
*	*	*	*Xrep	*	*	*	*	*	*	*	*	*	*	*	*
!	!	!	!	!	!LO:LB:g=original	!	!	!	!	!	!	!	!	!	!
=47	=47	=47	=47	=47	=47	=47	=47	=47	=47	=47	=47	=47	=47	=47	=47
8D\L	+ 4	.	16e/LL	.	4gg\	.	4.c#X\	Ky-	4.A/	Ky-	4.gg\	Ky-	1D/	1d/	.
.	.	.	16g/	.	.	.	.	.	.	.	.	.	.	.	.
8D\	.	.	16a/	.	.	.	.	.	.	.	.	.	.	.	.
.	.	.	16g/JJ	.	.	.	.	.	.	.	.	.	.	.	.
*	*	*	*rep	*	*	*	*	*	*	*	*	*	*	*	*
8D\	.	.	16e/LL	.	16gg\LL	.	.	.	.	.	.	.	.	.	.
.	.	.	16g/	.	16aa\	.	.	.	.	.	.	.	.	.	.
8D\J	.	.	16a/	.	16bb\	.	8c#\	-ri-	8A/	-ri-	8gg\	-ri-	.	.	.
.	.	.	16g/JJ	.	16aa\JJ	.	.	.	.	.	.	.	.	.	.
*	*	*	*Xrep	*	*	*	*	*	*	*	*	*	*	*	*
!	!	!	!LO:LB:g=original	!	!	!	!	!	!	!	!	!	!	!	!
8D\L	.	.	16e/LL	.	16gg\LL	.	4c#\	-e	8G/L	-e	4ee\	-e	.	.	.
.	.	.	16g/	.	16ff#\	.	.	.	.	.	.	.	.	.	.
8D\	.	.	16a/	.	16ee\	.	.	.	8A/J	.	.	.	.	.	.
.	.	.	16g/JJ	.	16dd\JJ	.	.	.	.	.	.	.	.	.	.
*	*	*	*rep	*	*	*	*	*	*	*	*	*	*	*	*
8D\	.	.	16e/LL	.	16cc#X\LL	.	4c#\	e-	8G/L	e-	4cc#X\	e-	.	.	.
.	.	.	16g/	.	16dd\	.	.	.	.	.	.	.	.	.	.
8D\J	.	.	16a/	.	16ee\	.	.	.	8A/J	.	.	.	.	.	.
.	.	.	16g/JJ	.	16dd\JJ	.	.	.	.	.	.	.	.	.	.
*Xtremolo	*	*	*Xrep	*	*	*	*	*	*	*	*	*	*	*	*
!	!	!	!	!	!	!	!	!	!	!	!	!	!LO:LB:g=original	!LO:LB:g=original	!
=48	=48	=48	=48	=48	=48	=48	=48	=48	=48	=48	=48	=48	=48	=48	=48
4D\	8 3	.	4d/	.	4dd\	.	4d\	-lei-	8G/L	-lei-	8ee\L	-lei-	1D/	1d/	.
.	.	.	.	.	.	.	.	.	8F#/J	.	8dd\J	.	.	.	.
4DD/	.	.	4r	.	16ff#\LL	.	4D\	-son	4F#/	-son	4dd\	-son	.	.	.
.	.	.	.	.	16ff#\	.	.	.	.	.	.	.	.	.	.
.	.	.	.	.	16aa\	.	.	.	.	.	.	.	.	.	.
.	.	.	.	.	16aa\JJ	.	.	.	.	.	.	.	.	.	.
2r	.	.	2r	.	16ddd\LL	.	2r	.	2r	.	2r	.	.	.	.
.	.	.	.	.	16ddd\	.	.	.	.	.	.	.	.	.	.
.	.	.	.	.	16aa\	.	.	.	.	.	.	.	.	.	.
.	.	.	.	.	16aa\JJ	.	.	.	.	.	.	.	.	.	.
.	.	.	.	.	16ff#\LL	.	.	.	.	.	.	.	.	.	.
.	.	.	.	.	16ff#\	.	.	.	.	.	.	.	.	.	.
.	.	.	.	.	16aa\	.	.	.	.	.	.	.	.	.	.
.	.	.	.	.	16aa\JJ	.	.	.	.	.	.	.	.	.	.
=49	=49	=49	=49	=49	=49	=49	=49	=49	=49	=49	=49	=49	=49	=49	=49
!LO:TX:a:t=|	!	!	!LO:TX:t=P:problem:mmixed baem	!	!LO:TX:t=P:problem:mixed beam	!	!	!	!	!	!	!	!	!	!
8d\L	.	.	16dd\LL	.	16dd\LL	.	0r	.	0r	.	0r	.	1D/	1d/	.
.	.	.	16dd\	.	16dd\	.	.	.	.	.	.	.	.	.	.
!LO:TX:a:t=|	!	!	!	!	!	!	!	!	!	!	!	!	!	!	!
8D\	.	.	16d/	.	16d/	.	.	.	.	.	.	.	.	.	.
.	.	.	16d/JJ	.	16d/JJ	.	.	.	.	.	.	.	.	.	.
!LO:TX:a:t=|	!	!	!	!	!	!	!	!	!	!	!	!	!	!	!
8F#\	.	.	16f#/LL	.	16f#/LL	.	.	.	.	.	.	.	.	.	.
.	.	.	16f#/	.	16f#/	.	.	.	.	.	.	.	.	.	.
!LO:TX:a:t=|	!	!	!	!	!	!	!	!	!	!	!	!	!	!	!
8A\J	.	.	16a/	.	16a/	.	.	.	.	.	.	.	.	.	.
.	.	.	16a/JJ	.	16a/JJ	.	.	.	.	.	.	.	.	.	.
!LO:LB:t=original	!	!	!	!	!	!	!	!	!	!	!	!	!	!	!
!LO:TX:a:t=|	!	!	!	!	!	!	!	!	!	!	!	!	!	!	!
8d\L	.	.	16dd/LL	.	16dd/LL	.	.	.	.	.	.	.	.	.	.
.	.	.	16dd/	.	16dd/	.	.	.	.	.	.	.	.	.	.
!LO:TX:a:t=|	!	!	!	!	!	!	!	!	!	!	!	!	!	!	!
8A\	.	.	16a/	.	16a/	.	.	.	.	.	.	.	.	.	.
.	.	.	16a/JJ	.	16a/JJ	.	.	.	.	.	.	.	.	.	.
!LO:TX:a:t=|	!	!	!	!	!	!	!	!	!	!	!	!	!	!	!
8F#\	.	.	16f#/LL	.	16f#/LL	.	.	.	.	.	.	.	.	.	.
.	.	.	16f#/	.	16f#/	.	.	.	.	.	.	.	.	.	.
!LO:TX:a:t=|	!	!	!	!	!	!	!	!	!	!	!	!	!	!	!
8A\J	.	.	16a/	.	16a/	.	.	.	.	.	.	.	.	.	.
.	.	.	16a/JJ	.	16a/JJ	.	.	.	.	.	.	.	.	.	.
=50	=50	=50	=50	=50	=50	=50	=50	=50	=50	=50	=50	=50	=50	=50	=50
4D\	.	.	16d/LL	.	16d/LL	.	.	.	.	.	.	.	4D/	4d/	.
.	.	.	16d/	.	16d/	.	.	.	.	.	.	.	.	.	.
.	.	.	16c#X/	.	16c#X/	.	.	.	.	.	.	.	.	.	.
.	.	.	16c#/JJ	.	16c#/JJ	.	.	.	.	.	.	.	.	.	.
*	*	*	*rep	*	*rep	*	*	*	*	*	*	*	*	*	*
4r	.	.	16d/LL	.	16d/LL	.	.	.	.	.	.	.	4r	4r	.
.	.	.	16d/	.	16d/	.	.	.	.	.	.	.	.	.	.
.	.	.	16c#X/	.	16c#X/	.	.	.	.	.	.	.	.	.	.
.	.	.	16c#/JJ	.	16c#/JJ	.	.	.	.	.	.	.	.	.	.
*	*	*	*Xrep	*	*Xrep	*	*	*	*	*	*	*	*	*	*
*	*	*	*rep	*	*rep	*	*	*	*	*	*	*	*	*	*
2r	.	.	16d/LL	.	16d/LL	.	.	.	.	.	.	.	2r	2r	.
.	.	.	16d/	.	16d/	.	.	.	.	.	.	.	.	.	.
.	.	.	16c#X/	.	16c#X/	.	.	.	.	.	.	.	.	.	.
.	.	.	16c#/JJ	.	16c#/JJ	.	.	.	.	.	.	.	.	.	.
*	*	*	*Xrep	*	*Xrep	*	*	*	*	*	*	*	*	*	*
.	.	.	16d/LL	.	16d/LL	.	.	.	.	.	.	.	.	.	.
.	.	.	16d/	.	16d/	.	.	.	.	.	.	.	.	.	.
.	.	.	16d#X/	.	16d#X/	.	.	.	.	.	.	.	.	.	.
.	.	.	16d#/JJ	.	16d#/JJ	.	.	.	.	.	.	.	.	.	.
=51	=51	=51	=51	=51	=51	=51	=51	=51	=51	=51	=51	=51	=51	=51	=51
1r	.	.	16e/LL	.	16e/LL	.	1r	.	1r	.	1r	.	1r	1r	.
.	.	.	16e/	.	16e/	.	.	.	.	.	.	.	.	.	.
.	.	.	16B/	.	16d#X/	.	.	.	.	.	.	.	.	.	.
.	.	.	16B/JJ	.	16d#/JJ	.	.	.	.	.	.	.	.	.	.
!	!	!	!	!	!LO:LB:g=original	!	!	!	!	!	!	!	!	!	!
.	.	.	16cn/LL	.	16e/LL	.	.	.	.	.	.	.	.	.	.
.	.	.	16c/	.	16e/	.	.	.	.	.	.	.	.	.	.
.	.	.	16B/	.	16d#X/	.	.	.	.	.	.	.	.	.	.
.	.	.	16B/JJ	.	16d#/JJ	.	.	.	.	.	.	.	.	.	.
.	.	.	16c/LL	.	16e/LL	.	.	.	.	.	.	.	.	.	.
.	.	.	16c/	.	16e/	.	.	.	.	.	.	.	.	.	.
.	.	.	16e/	.	16cc/	.	.	.	.	.	.	.	.	.	.
.	.	.	16e/JJ	.	16cc/JJ	.	.	.	.	.	.	.	.	.	.
.	.	.	16d/LL	.	16f#/LL	.	.	.	.	.	.	.	.	.	.
.	.	.	16d/	.	16f#/	.	.	.	.	.	.	.	.	.	.
.	.	.	16f#/	.	16dd/	.	.	.	.	.	.	.	.	.	.
.	.	.	16f#/JJ	.	16dd/JJ	.	.	.	.	.	.	.	.	.	.
!	!	!	!	!	!	!	!LO:LB:g=original	!	!LO:LB:g=original	!	!	!	!	!	!
=52	=52	=52	=52	=52	=52	=52	=52	=52	=52	=52	=52	=52	=52	=52	=52
!LO:TX:t=P:problem:mixed beam	!	!	!	!	!	!	!	!	!	!	!	!	!	!	!
8GG/L	3 1	.	4b/ 4d/ 4G/	.	4gg/ 4b/ 4d/ 4G/	.	4G\	Chri-	4G\	Chri-	4b\	X-	4g\	4g\	.
8G\	.	.	.	.	.	.	.	.	.	.	.	.	.	.	.
8G\	4 2	.	4r	.	4r	.	4G\	-ste	4A\	-ste	4cc\	-ste	4r	4r	.
8G\J	.	.	.	.	.	.	.	.	.	.	.	.	.	.	.
*tremolo	*	*	*	*	*	*	*	*	*	*	*	*	*	*	*
8G\L	5 3	.	2r	.	2r	.	4G\	au-	4B\	au-	4dd\	au-	2r	2r	.
8G\	.	.	.	.	.	.	.	.	.	.	.	.	.	.	.
8G\	6 4	.	.	.	.	.	4G\	-di	4c\	-di	4ee\	-di	.	.	.
8G\J	.	.	.	.	.	.	.	.	.	.	.	.	.	.	.
*Xtremolo	*	*	*	*	*	*	*	*	*	*	*	*	*	*	*
!	!	!	!LO:LB:g=original	!	!	!	!	!	!	!	!	!	!	!	!
=53	=53	=53	=53	=53	=53	=53	=53	=53	=53	=53	=53	=53	=53	=53	=53
4G\	5 3	.	4b\	.	4gg\	.	4G\	nos	4B\	nos	4dd\	nos	2g\	2b\	.
.	.	.	8qqcc/	.	8qqaa/	.	.	.	.	.	.	.	.	.	.
4r	.	.	16b\LL	.	16gg\LL	.	4r	.	4r	.	4r	.	.	.	.
.	.	.	16a\	.	16ff#\	.	.	.	.	.	.	.	.	.	.
.	.	.	16b\	.	16gg\	.	.	.	.	.	.	.	.	.	.
.	.	.	16dd\JJ	.	16bb\JJ	.	.	.	.	.	.	.	.	.	.
4r	.	.	16cc\LL	.	16aa\LL	.	2r	.	2r	.	2r	.	4a\	4cc\	.
.	.	.	16b\	.	16gg\	.	.	.	.	.	.	.	.	.	.
.	.	.	16a\	.	16ff#\	.	.	.	.	.	.	.	.	.	.
.	.	.	16g\JJ	.	16ee\JJ	.	.	.	.	.	.	.	.	.	.
4D\	.	.	16f#/LL	.	16dd\LL	.	.	.	.	.	.	.	4d\	4a\	.
.	.	.	16e/	.	16cc\	.	.	.	.	.	.	.	.	.	.
.	.	.	16d/	.	16b\	.	.	.	.	.	.	.	.	.	.
.	.	.	16c/JJ	.	16a\JJ	.	.	.	.	.	.	.	.	.	.
!	!	!	!	!	!	!	!	!	!	!	!LO:LB:g=original	!	!	!	!
=54	=54	=54	=54	=54	=54	=54	=54	=54	=54	=54	=54	=54	=54	=54	=54
!LO:TX:t=P:problem:mixed beam	!	!	!	!	!	!	!	!	!	!	!	!	!	!	!
8GG/L	3 1	.	4B/	.	4g/	.	4G\	Chri-	4G/	Chri-	4b\	X-	4g\	4b\	.
8G\	.	.	.	.	.	.	.	.	.	.	.	.	.	.	.
8G\	4 2	.	4r	.	4r	.	8G\	-ste	8A/	-ste	8cc\	-ste	4r	4r	.
8G\J	.	.	.	.	.	.	8G\	ex-	8A/	ex-	8cc\	e-	.	.	.
*tremolo	*	*	*	*	*	*	*	*	*	*	*	*	*	*	*
8G\L	5 3	.	2r	.	2r	.	4G\	-au-	4B\	-au-	4dd\	-xau-	2r	2r	.
8G\	.	.	.	.	.	.	.	.	.	.	.	.	.	.	.
8G\	6 4	.	.	.	.	.	4G\	-di	4c\	-di	4ee\	-di	.	.	.
8G\J	.	.	.	.	.	.	.	.	.	.	.	.	.	.	.
*Xtremolo	*	*	*	*	*	*	*	*	*	*	*	*	*	*	*
=55	=55	=55	=55	=55	=55	=55	=55	=55	=55	=55	=55	=55	=55	=55	=55
4G\	5 3	.	4b\	.	4gg\	.	4G\	nos	4B\	nos	4dd\	nos	2g\	2b\	.
.	.	.	8qqcc/	.	8qqaa/	.	.	.	.	.	.	.	.	.	.
4r	.	.	16b\LL	.	16gg\LL	.	4r	.	4r	.	4r	.	.	.	.
.	.	.	16a\	.	16ff#\	.	.	.	.	.	.	.	.	.	.
.	.	.	16b\	.	16gg\	.	.	.	.	.	.	.	.	.	.
.	.	.	16dd\JJ	.	16bb\JJ	.	.	.	.	.	.	.	.	.	.
2r	.	.	16cc\LL	.	16aa\LL	.	2r	.	2r	.	2r	.	4a\	4cc\	.
.	.	.	16b\	.	16gg\	.	.	.	.	.	.	.	.	.	.
.	.	.	16a\	.	16ff#\	.	.	.	.	.	.	.	.	.	.
.	.	.	16g\JJ	.	16ee\JJ	.	.	.	.	.	.	.	.	.	.
.	.	.	16f#/LL	.	16dd\LL	.	.	.	.	.	.	.	4d\	4a\	.
.	.	.	16e/	.	16cc\	.	.	.	.	.	.	.	.	.	.
.	.	.	16d/	.	16b\	.	.	.	.	.	.	.	.	.	.
.	.	.	16c/JJ	.	16a\JJ	.	.	.	.	.	.	.	.	.	.
=56	=56	=56	=56	=56	=56	=56	=56	=56	=56	=56	=56	=56	=56	=56	=56
*	*	*	*	*	*tremolo	*	*	*	*	*	*	*	*	*	*
!LO:TX:t=P:problem:mixed beam	!	!	!	!	!	!	!	!	!	!	!	!	!	!	!
8BB/L	6 3	.	16B/LL	.	16g/LL	.	4B\	Ky-	4d\	Ky-	4gg\	Ky-	4g\	4b\	.
.	.	.	16d/	.	16g/	.	.	.	.	.	.	.	.	.	.
8B\	.	.	16g/	.	16g/	.	.	.	.	.	.	.	.	.	.
.	.	.	16d/JJ	.	16g/JJ	.	.	.	.	.	.	.	.	.	.
*	*	*	*rep	*	*Xtremolo	*	*	*	*	*	*	*	*	*	*
8B\	.	.	16B/LL	.	16gg\LL	.	4B\	-ri-	4d\	-ri-	4gg\	-ri-	8g\L	8b\L	.
.	.	.	16d/	.	16gg\	.	.	.	.	.	.	.	.	.	.
8B\J	.	.	16g/	.	16gg\	.	.	.	.	.	.	.	8g\J	8b\J	.
.	.	.	16d/JJ	.	16gg\JJ	.	.	.	.	.	.	.	.	.	.
*	*	*	*Xrep	*	*tremolo	*	*	*	*	*	*	*	*	*	*
*tremolo	*	*	*rep	*	*	*	*	*	*	*	*	*	*	*	*
8B\L	.	.	16B/LL	.	16dd\LL	.	4B\	-e	4G/	-e	4dd\	-e	4b\	4dd\	.
.	.	.	16d/	.	16dd\	.	.	.	.	.	.	.	.	.	.
8B\	.	.	16g/	.	16dd\	.	.	.	.	.	.	.	.	.	.
.	.	.	16d/JJ	.	16dd\JJ	.	.	.	.	.	.	.	.	.	.
*	*	*	*Xrep	*	*	*	*	*	*	*	*	*	*	*	*
*	*	*	*rep	*	*	*	*	*	*	*	*	*	*	*	*
8B\	.	.	16B/LL	.	16b\LL	.	4B\	e-	4G/	e-	4b\	e-	4g\	4b\	.
.	.	.	16d/	.	16b\	.	.	.	.	.	.	.	.	.	.
8B\J	.	.	16g/	.	16b\	.	.	.	.	.	.	.	.	.	.
.	.	.	16d/JJ	.	16b\JJ	.	.	.	.	.	.	.	.	.	.
*	*	*	*Xrep	*	*	*	*	*	*	*	*	*	*	*	*
=57	=57	=57	=57	=57	=57	=57	=57	=57	=57	=57	=57	=57	=57	=57	=57
8c\L	6 3	.	16c/LL	.	16ee\LL	.	2c\	-lei-	2G/	-lei-	2ee\	-lei-	4cc\	4ee\	.
.	.	.	16e/	.	16ee\	.	.	.	.	.	.	.	.	.	.
8c\	.	.	16a/	.	16ee\	.	.	.	.	.	.	.	.	.	.
.	.	.	16e/JJ	.	16ee\JJ	.	.	.	.	.	.	.	.	.	.
*	*	*	*rep	*	*	*	*	*	*	*	*	*	*	*	*
8c\	.	.	16c/LL	.	16gg#X\LL	.	.	.	.	.	.	.	4r	4r	.
.	.	.	16e/	.	16gg#\	.	.	.	.	.	.	.	.	.	.
8c\J	.	.	16a/	.	16gg#\	.	.	.	.	.	.	.	.	.	.
.	.	.	16e/JJ	.	16gg#\JJ	.	.	.	.	.	.	.	.	.	.
*	*	*	*Xrep	*	*	*	*	*	*	*	*	*	*	*	*
!	!	!	!	!	!LO:LB:g=original	!	!	!	!	!	!	!	!	!	!
*	*	*	*rep	*	*	*	*	*	*	*	*	*	*	*	*
8c\L	.	.	16c/LL	.	16aa\LL	.	4c\	-son	4G/	-son	4ee\	-son	2r	2r	.
.	.	.	16e/	.	16aa\	.	.	.	.	.	.	.	.	.	.
8c\	.	.	16a/	.	16aa\	.	.	.	.	.	.	.	.	.	.
.	.	.	16e/JJ	.	16aa\JJ	.	.	.	.	.	.	.	.	.	.
*	*	*	*Xrep	*	*	*	*	*	*	*	*	*	*	*	*
*	*	*	*rep	*	*	*	*	*	*	*	*	*	*	*	*
8c\	.	.	16c/LL	.	16ccc\LL	.	4c\	e-	4e\	e-	4aa\	e-	.	.	.
.	.	.	16e/	.	16ccc\	.	.	.	.	.	.	.	.	.	.
8c\J	.	.	16a/	.	16ccc\	.	.	.	.	.	.	.	.	.	.
.	.	.	16e/JJ	.	16ccc\JJ	.	.	.	.	.	.	.	.	.	.
*	*	*	*Xrep	*	*	*	*	*	*	*	*	*	*	*	*
!	!	!	!	!	!	!	!	!	!LO:LB:g=original	!	!	!	!LO:LB:g=original	!LO:LB:g=original	!
=58	=58	=58	=58	=58	=58	=58	=58	=58	=58	=58	=58	=58	=58	=58	=58
*	*	*	*tremolo	*	*	*	*	*	*	*	*	*	*	*	*
8d\L	6 4	.	16B/LL	.	16bb\LL	.	2d\	-lei-	2B\	-lei-	2gg\	-lei-	2g\	2b\	.
.	.	.	16g/	.	16bb\	.	.	.	.	.	.	.	.	.	.
8d\	.	.	16B/	.	16bb\	.	.	.	.	.	.	.	.	.	.
.	.	.	16g/	.	16bb\	.	.	.	.	.	.	.	.	.	.
8d\	.	.	16B/	.	16bb\	.	.	.	.	.	.	.	.	.	.
.	.	.	16g/	.	16bb\	.	.	.	.	.	.	.	.	.	.
8d\J	.	.	16B/	.	16bb\	.	.	.	.	.	.	.	.	.	.
.	.	.	16g/JJ	.	16bb\JJ	.	.	.	.	.	.	.	.	.	.
8D\L	7 3	.	16c/LL	.	16aa\LL	.	2D\	.	2A\	-son	2ff#\	.	2d\	2a\	.
.	.	.	16f#/	.	16aa\	.	.	.	.	.	.	.	.	.	.
8D\	.	.	16c/	.	16aa\	.	.	.	.	.	.	.	.	.	.
.	.	.	16f#/	.	16aa\	.	.	.	.	.	.	.	.	.	.
8D\	.	.	16c/	.	16aa\	.	.	.	.	.	.	.	.	.	.
.	.	.	16f#/	.	16aa\	.	.	.	.	.	.	.	.	.	.
8D\J	.	.	16c/	.	16aa\	.	.	.	.	.	.	.	.	.	.
.	.	.	16f#/JJ	.	16aa\JJ	.	.	.	.	.	.	.	.	.	.
*Xtremolo	*	*	*Xtremolo	*	*	*	*	*	*	*	*	*	*	*	*
!LO:LB:g=original	!	!	!	!	!	!	!LO:LB:g=original	!	!	!	!	!	!	!	!
=59	=59	=59	=59	=59	=59	=59	=59	=59	=59	=59	=59	=59	=59	=59	=59
!LO:TX:t=P:problem:mixed beam	!	!	!	!	!	!	!	!	!	!	!	!	!	!	!
8BB/L	6 3	.	16B/LL	.	16gg\LL	.	4G\	-son	4d\	Ky-	4gg\	-son	4g\	4b\	.
.	.	.	16d/	.	16gg\	.	.	.	.	.	.	.	.	.	.
8B\	.	.	16g/	.	16gg\	.	.	.	.	.	.	.	.	.	.
.	.	.	16d/JJ	.	16gg\JJ	.	.	.	.	.	.	.	.	.	.
*	*	*	*rep	*	*	*	*	*	*	*	*	*	*	*	*
8B\	.	.	16B/LL	.	16gg\LL	.	4B\	Chri-	4d\	-ri-	4gg\	X-	8g\L	8b\L	.
.	.	.	16d/	.	16gg\	.	.	.	.	.	.	.	.	.	.
8B\J	.	.	16g/	.	16gg\	.	.	.	.	.	.	.	8g\J	8b\J	.
.	.	.	16d/JJ	.	16gg\JJ	.	.	.	.	.	.	.	.	.	.
*	*	*	*Xrep	*	*	*	*	*	*	*	*	*	*	*	*
*tremolo	*	*	*rep	*	*	*	*	*	*	*	*	*	*	*	*
8B\L	.	.	16B/LL	.	16dd\LL	.	4B\	-ste	4G/	-e	4dd\	-ste	4b\	4dd\	.
.	.	.	16d/	.	16dd\	.	.	.	.	.	.	.	.	.	.
8B\	.	.	16g/	.	16dd\	.	.	.	.	.	.	.	.	.	.
.	.	.	16d/JJ	.	16dd\JJ	.	.	.	.	.	.	.	.	.	.
*	*	*	*Xrep	*	*	*	*	*	*	*	*	*	*	*	*
*	*	*	*rep	*	*	*	*	*	*	*	*	*	*	*	*
8B\	.	.	16B/LL	.	16b\LL	.	4B\	e-	4G/	e-	4b\	e-	4g\	4b\	.
.	.	.	16d/	.	16b\	.	.	.	.	.	.	.	.	.	.
8B\J	.	.	16g/	.	16b\	.	.	.	.	.	.	.	.	.	.
.	.	.	16d/JJ	.	16b\JJ	.	.	.	.	.	.	.	.	.	.
*	*	*	*Xrep	*	*	*	*	*	*	*	*	*	*	*	*
!	!	!	!LO:LB:g=original	!	!	!	!	!	!	!	!LO:LB:g=original	!	!	!	!
=60	=60	=60	=60	=60	=60	=60	=60	=60	=60	=60	=60	=60	=60	=60	=60
8c\L	.	.	16c/LL	.	16ee\LL	.	2c\	-lei-	2G/	-lei-	2ee\	-lei-	4cc\	4gg\	.
.	.	.	16e/	.	16ee\	.	.	.	.	.	.	.	.	.	.
8c\	.	.	16a/	.	16ee\	.	.	.	.	.	.	.	.	.	.
.	.	.	16e/JJ	.	16ee\JJ	.	.	.	.	.	.	.	.	.	.
*	*	*	*rep	*	*	*	*	*	*	*	*	*	*	*	*
8c\	.	.	16c/LL	.	16gg#X\LL	.	.	.	.	.	.	.	4r	4r	.
.	.	.	16e/	.	16gg#\	.	.	.	.	.	.	.	.	.	.
8c\J	.	.	16a/	.	16gg#\	.	.	.	.	.	.	.	.	.	.
.	.	.	16e/JJ	.	16gg#\JJ	.	.	.	.	.	.	.	.	.	.
*	*	*	*Xrep	*	*	*	*	*	*	*	*	*	*	*	*
*	*	*	*rep	*	*	*	*	*	*	*	*	*	*	*	*
8c\L	.	.	16c/LL	.	16bb\LL	.	4c\	-son	4G/	-son	4ee\	-son	2r	2r	.
.	.	.	16e/	.	16bb\	.	.	.	.	.	.	.	.	.	.
8c\	.	.	16a/	.	16bb\	.	.	.	.	.	.	.	.	.	.
.	.	.	16e/JJ	.	16bb\JJ	.	.	.	.	.	.	.	.	.	.
*	*	*	*Xrep	*	*	*	*	*	*	*	*	*	*	*	*
*	*	*	*rep	*	*	*	*	*	*	*	*	*	*	*	*
8c\	.	.	16c/LL	.	16ccc\LL	.	4c\	e-	4e\	e-	4aa\	e-	.	.	.
.	.	.	16e/	.	16ccc\	.	.	.	.	.	.	.	.	.	.
8c\J	.	.	16a/	.	16ccc\	.	.	.	.	.	.	.	.	.	.
.	.	.	16e/JJ	.	16ccc\JJ	.	.	.	.	.	.	.	.	.	.
*	*	*	*Xrep	*	*	*	*	*	*	*	*	*	*	*	*
=61	=61	=61	=61	=61	=61	=61	=61	=61	=61	=61	=61	=61	=61	=61	=61
*	*	*	*tremolo	*	*	*	*	*	*	*	*	*	*	*	*
8d\L	6 4	.	16B/LL	.	16bb\LL	.	2d\	-lei-	2B\	-lei-	2gg\	-lei-	2g\	2b\	.
.	.	.	16g/	.	16bb\	.	.	.	.	.	.	.	.	.	.
8d\	.	.	16B/	.	16bb\	.	.	.	.	.	.	.	.	.	.
.	.	.	16g/	.	16bb\	.	.	.	.	.	.	.	.	.	.
8d\	.	.	16B/	.	16bb\	.	.	.	.	.	.	.	.	.	.
.	.	.	16g/	.	16bb\	.	.	.	.	.	.	.	.	.	.
8d\J	.	.	16B/	.	16bb\	.	.	.	.	.	.	.	.	.	.
.	.	.	16g/JJ	.	16bb\JJ	.	.	.	.	.	.	.	.	.	.
8D\L	7 3	.	16c/LL	.	16aa\LL	.	2D\	.	2A\	.	2ff#\	.	2d\	2a\	.
.	.	.	16f#/	.	16aa\	.	.	.	.	.	.	.	.	.	.
8D\	.	.	16c/	.	16aa\	.	.	.	.	.	.	.	.	.	.
.	.	.	16f#/	.	16aa\	.	.	.	.	.	.	.	.	.	.
8D\	.	.	16c/	.	16aa\	.	.	.	.	.	.	.	.	.	.
.	.	.	16f#/	.	16aa\	.	.	.	.	.	.	.	.	.	.
8D\J	.	.	16c/	.	16aa\	.	.	.	.	.	.	.	.	.	.
.	.	.	16f#/JJ	.	16aa\JJ	.	.	.	.	.	.	.	.	.	.
*Xtremolo	*	*	*Xtremolo	*	*Xtremolo	*	*	*	*	*	*	*	*	*	*
!	!	!	!	!	!LO:LB:g=original	!	!	!	!	!	!	!	!	!	!
=62	=62	=62	=62	=62	=62	=62	=62	=62	=62	=62	=62	=62	=62	=62	=62
4G\	3	.	4g/	.	4gg\	.	4G\	-son	4B\	-son	4gg\	-son	4B/	4g\	.
4G\	8 5 3	.	4b/ 4d/ 4G/	.	4gg/ 4b/ 4d/ 4G/	.	4r	.	4r	.	4r	.	4g\	4b\	.
4G\	_ _ _	.	4b/ 4d/ 4G/	.	4gg/ 4b/ 4d/ 4G/	.	2r	.	2r	.	2r	.	4g\	4b\	.
!LO:TX:a:t=Pater De Celis	!	!	!	!	!	!	!	!	!	!	!	!	!	!	!
4r	x	.	4r	.	4r	.	.	.	.	.	.	.	4r	4r	.
==	==	==	==	==	==	==	==	==	==	==	==	==	==	==	==
*-	*-	*-	*-	*-	*-	*-	*-	*-	*-	*-	*-	*-	*-	*-	*-
!!!system-decoration: [(s1,s2)][(s3,s4,s5)][(s6,s7)]s8
!!!RDF**dynam: p = p.
!!!RDF**dynam: f = f.
!!!ENC: Filip Voros
!!!END: 2021-11-17
!!!ENC: Leszek Kubiak
!!!END: 2021-11-19
